**kern	**dynam	**kern	**dynam	**kern	**dynam	**kern	**dynam	**mxhm
*I"Cello	*	*I"Viola	*	*I"2nd Violin	*	*I"1st Violin	*	*
*clefF4	*	*clefC3	*	*clefG2	*	*clefG2	*	*
*k[b-e-a-d-g-c-f-]	*	*k[b-e-a-d-g-c-f-]	*	*k[b-e-a-d-g-c-f-]	*	*k[b-e-a-d-g-c-f-]	*	*
*a-:	*	*a-:	*	*a-:	*	*a-:	*	*
*M2/4	*	*M2/4	*	*M2/4	*	*M2/4	*	*
=1	=1	=1	=1	=1	=1	=1	=1	=1
!	!	!	!	!	!	!LO:TX:a:B:t=Adagio molto e mesto	!	!
2r	.	2r	.	4r	.	2r	.	i
.	.	.	.	[4e-	p	.	.	.
=2	=2	=2	=2	=2	=2	=2	=2	=2
!	!	!LO:TX:a:i:t=sotto voce.	!	!	!LO:DY:a	!	!	!
4r	.	(4A-	p	2e-_	p	(8ee-L	.	i
.	.	.	.	.	.	16.gg-L	.	.
.	.	.	.	.	.	32ff-JJk	.	.
!LO:TX:a:i:t=sotto voce.	!	!	!	!	!	!	!	!
[4E-	p	4B-	.	.	.	8a-L	.	V(4)
.	.	.	.	.	.	8gJ)	.	V
=3	=3	=3	=3	=3	=3	=3	=3	=3
!LO:TX:b:i:t=sotto voce.	!	!	!	!LO:TX:a:i:t=sotto voce.	!	!	!	!
8E-L]	.	8c-L	.	8e-L]	.	(8a-L	.	V(64)
8E-J	.	8GJ	.	[8e-J	.	16.ee-L	.	V
.	.	.	.	.	.	32b-JJk	.	.
8AA-L	.	8B-L	.	8e-L]	.	8dd-L	.	i(94)
[8A-J	.	16A-Jk)	.	16e-Jk	.	16cc-Jk)	.	i\\
.	.	16r	.	16r	.	16r	.	.
=4	=4	=4	=4	=4	=4	=4	=4	=4
(8A-L]	.	(8c-L	.	8r	.	(8..ee-L	.	i
8c-J	.	8e-J	.	(8a-	.	.	.	.
.	.	.	.	.	.	32aa-Jkk	.	i6
8.B-L	.	8f-L	.	8.dd-L	.	8aa-L	.	ii%7
.	.	16e-L)	.	.	.	16ggL	.	V43
16A-Jk)	.	16e-JJ	.	16cc-Jk)	.	16aa-TJJ)	.	i
.	.	.	.	.	.	16qqgg/LL	.	.
.	.	.	.	.	.	16qqaa-/JJ	.	.
=5	=5	=5	=5	=5	=5	=5	=5	=5
(16GLL	.	(16e-LL	.	(16b-LL	.	(16bb-LL	.	V6
16E-)	.	16b-)	.	16dd-)	.	16ee-)	.	V7
(16A-'	.	(16a-'	.	(16cc-'	.	(16ee-'	.	i
16c-'JJ)	.	16a-'JJ)	.	16cc-'JJ)	.	16dd'JJ)	.	#viio2/V
!LO:TX:b:i:t=cresc.	!	!LO:TX:b:i:t=cresc.	!	!LO:TX:b:i:t=cresc.	!	!LO:TX:b:i:t=cresc.	!	!
4e-	.	(8a-L	.	(8cc-L	.	(8ddL	.	V(#764)
.	.	8gJ)	.	8b-J)	.	8ee-J)	.	V
=6	=6	=6	=6	=6	=6	=6	=6	=6
!	!	!	!	!	!LO:DY:a	!	!	!
(8d-L	p	4g-	p <	4b-	p p <	(8ff-L	<	V43/III
8f-J	<	.	.	.	.	16.dd-L	.	V2/III
.	.	.	.	.	.	32gg-JJk)	[	.
8.e-L	[ >	(8g-L	[ >	(8.cc-L	>	(8.gg-L	>	III6
.	.	16.cc-L	.	.	.	.	.	.
16c-Jk)	]]	.	.	16e-Jk)	]]	16ee-Jk)	]]	III
.	.	32g-JJk)	]]	.	.	.	.	.
=7	=7	=7	=7	=7	=7	=7	=7	=7
!LO:TX:b:i:t=cresc.	!	!LO:TX:b:i:t=cresc.	!	!LO:TX:b:i:t=cresc.	!	!LO:TX:b:i:t=cresc.	!	!
(8d-L	.	4g-	.	(8B-L	]	(16gg-LL	.	V43/III
.	.	.	.	.	.	16ff-	.	.
8f-J	.	.	.	8b-J	.	16.dd-	.	V2/III
.	.	.	.	.	.	32gg-JJk)	.	.
8.e-L	.	(8g-L	.	8.cc-L	.	[8gg-	.	III6
.	.	16.cc-L	.	.	.	8gg-]	.	III
16c-Jk)	.	.	.	16ee-Jk)	.	.	.	.
.	.	32e-JJk)	.	.	.	.	.	.
=8	=8	=8	=8	=8	=8	=8	=8	=8
!	!	!	!LO:DY:a	!	!LO:DY:a	!	!	!
4B-	f	4d-	f f	4e- 4g	f	4ee- 4gg	.	V43
8..A-L	f >	8..c-L	f >	8e-L 8a-	f >	8..ee-L 8..aa-	f >	i
.	.	.	.	8cc-J	]]	.	.	.
32F-Jkk	]]	32A-Jkk	]]	.	.	32a-Jkk	]]	VI
=9	=9	=9	=9	=9	=9	=9	=9	=9
!LO:TX:b:i:t=morendo.	!	!LO:TX:b:i:t=morendo.	!	!LO:TX:b:i:t=morendo.	!	!LO:TX:b:i:t=morendo.	!	!
(8D-L	.	(8a-L	.	(8dd-L	.	(8ff-L	.	iv
8E-J)	.	8gJ)	.	8b-J)	.	8ee-J)	.	V
!LO:TX:b:i:t=cresc.	!	!LO:TX:b:i:t=cresc.	!	!LO:TX:b:i:t=cresc.	!	!LO:TX:b:i:t=cresc.	!	!
(8.E-L	.	(16gLL	.	(16b-LL	.	[4ee-	.	V7
.	.	16d-	.	16g	.	.	.	.
.	.	16c-	.	16a-	.	.	.	.
16e-Jk)	.	16GJJ)	.	16dd-JJ)	.	.	.	.
=10	=10	=10	=10	=10	=10	=10	=10	=10
(8e-L	p	(4A-	p	(4cc-	p	4ee-]	p	i\\
16.g-L	.	.	.	.	.	.	.	.
!LO:TX:b:i:t=espressivo	!	!	!	!	!	!	!	!
32f-JJk	.	.	.	.	.	.	.	.
8A-L	.	[4E-)	.	8b-L	.	(16dd-KL	.	V7(4)
.	.	.	.	.	.	8ccc-	.	V7(64)
16GJk)	.	.	.	8dd-J)	.	.	.	.
16r	.	.	.	.	.	[16bb-Jk)	.	V7
=11	=11	=11	=11	=11	=11	=11	=11	=11
(8A-L	.	8E-L]	.	(8cc-L	.	16bb-KL]	.	V(64)
.	.	.	.	.	.	8aa-	.	.
16.e-L	.	8E-J	.	16dd-L	.	.	.	.
.	.	.	.	16ee-JJ)	.	[16ggJk	.	V
32B-JJk	.	.	.	.	.	.	.	.
8d-L	.	8.A-	.	4ee-	.	16ggLL]	.	i(#74)
.	.	.	.	.	.	(16ggt	.	.
.	.	.	.	.	.	16qqff/LL	.	i(9)
.	.	.	.	.	.	16qqgg/JJ	.	.
16c-Jk)	.	.	.	.	.	16bb-	.	.
16r	.	16r	.	.	.	16aa-JJ)	.	i
=12	=12	=12	=12	=12	=12	=12	=12	=12
(8..e-L	.	(8A-L	.	8r	.	8r	.	i
.	.	8c-J	.	(8ee-	.	(16aa-LL	.	i6
.	.	.	.	.	.	[16eee-JJ)	.	.
32a-Jkk)	.	.	.	.	.	.	.	.
(8a-L	.	8.B-L	.	8ff-L	.	16eee-KL]	.	ii%7
.	.	.	.	.	.	8ddd-	.	V43
16gL	.	.	.	16ee-L)	.	.	.	.
16a-TJJ)	.	16A-Jk)	.	(16ee-JJ	.	[16ccc-Jk	.	i
16qqg/LL	.	.	.	.	.	.	.	.
16qqa-/JJ	.	.	.	.	.	.	.	.
=13	=13	=13	=13	=13	=13	=13	=13	=13
(16b-LL	.	(16GLL	.	16dd-LL)	.	16ccc-LL]	.	V65
16e-)	.	16E-)	.	(16dd-	.	[16bb-	.	.
(16e-'	.	(16A-'	.	16cc-)	.	16bb-]	.	i
16d'JJ)	.	16c-'JJ)	.	16cc-JJ	.	16aa-JJ	.	#viio7/V
!LO:TX:b:i:t=cresc.	!	!LO:TX:b:i:t=cresc.	!	!LO:TX:b:i:t=cresc.	!	!LO:TX:b:i:t=cresc.	!	!
(8dL	.	4E-	.	(8cc-L	.	(8aa-L	.	.
8e-J)	.	.	.	8b-J)	.	8ggJ)	.	.
=14	=14	=14	=14	=14	=14	=14	=14	=14
(8f-L	p	(8F-L	p	(4b- 4dd-	p <	4gg-	p <	V2/III
16.d-L	<	8G-J	<	.	.	.	.	.
32g-JJk)	.	.	.	.	.	.	.	.
(8.g-L	[ >	8.E-L	[ >	4cc-) 4ee-	[ > ]]	(8gg-L	.	III6
.	.	.	.	.	.	32qqaa-/LLL	[ >	.
.	.	.	.	.	.	32qqgg-/	.	.
.	.	.	.	.	.	32qqff/	.	.
.	.	.	.	.	.	32qqgg-/JJJ	.	.
.	.	.	.	.	.	16.ccc-L	.	.
16e-Jk)	]]	16G-Jk)	]]	.	.	.	.	.
.	.	.	.	.	.	32gg-JJk)	]]	.
=15	=15	=15	=15	=15	=15	=15	=15	=15
!LO:TX:b:i:t=cresc.	!	!LO:TX:b:i:t=cresc.	!	!LO:TX:b:i:t=cresc.	!	!LO:TX:b:i:t=cresc.	!	!
(16g-LL	.	(8F-L	.	(4b- 4dd-	.	4gg-	.	V2/III
16f-	.	.	.	.	.	.	.	.
16.d-	.	16G-L	.	.	.	.	.	.
.	.	16FJJ	.	.	.	.	.	.
32g-JJk)	.	.	.	.	.	.	.	.
4g-	.	8E-L	.	8cc-L) 8ee-	.	(8.gg-L	.	III6
.	.	8c-J)	.	8e-J	.	.	.	.
.	.	.	.	.	.	32ff-LL	.	.
.	.	.	.	.	.	32ee-JJJ)	.	.
=16	=16	=16	=16	=16	=16	=16	=16	=16
!	!	!	!	!	!LO:DY:a	!	!	!
4g	f	(4B- 4d-	f	4e-	f f	4ee-	.	V43
8..a-L	f >	8..A-L 8..c-	f >	8e-L	f >	(8ee-L	f >	i
.	.	.	.	8a-J	]]	8aa-J	]]	.
32A-Jkk	]]	32F-Jkk)	]]	.	.	.	.	.
=17	=17	=17	=17	=17	=17	=17	=17	=17
!LO:TX:b:i:t=morendo.	!	!	!	!	!	!	!	!
!LO:TX:a:i:t=morendo.	!	!	!LO:TX:b:i:t=morendo.	!	!	!LO:TX:b:i:t=morendo.	!	!
(8f-L	.	(8F-L	.	(8a-L 4B-	.	8dd-L	.	ii%43
8e-	.	8E-	.	8gJ	.	8ee-	.	V
8A-J)	.	8A-J)	.	8c-) 8a-	.	8a-J)	.	i\\
16.r	.	8r	.	8re	.	8r	.	.
32AA-	.	.	.	.	.	.	.	.
=18	=18	=18	=18	=18	=18	=18	=18	=18
(8F-L	.	4r	.	2r	.	2r	.	#viio7/V
8E-J)	.	.	.	.	.	.	.	.
[4D	.	(8cc-L	.	.	.	.	.	.
.	.	8b-J	.	.	.	.	.	.
=19	=19	=19	=19	=19	=19	=19	=19	=19
!LO:TX:b:i:t=cresc.	!	!LO:TX:b:i:t=cresc.	!	!	!	!	!	!
(8DL]	.	8a-L	.	(8ccc-L	.	8r	.	.
8E-J	.	8g-J	.	8bb-J	.	8r	.	v.i
!	!	!	!	!LO:TX:b:i:t=cresc.	!	!LO:TX:b:i:t=cresc.	!	!
8c-L	.	8e-L)	.	8aa-L	.	(8ggg-L	.	ii65
8cJ)	.	8e-J	.	8aaXJ)	.	8fffJ)	.	V43/V
=20	=20	=20	=20	=20	=20	=20	=20	=20
!	!	!LO:TX:b:i:t=cresc.	!	!	!	!	!	!
(4B-	.	(4d	.	(4bb-	.	(8fff	.	V
.	.	.	.	.	.	4ggg-	sf	.Ger6
8c-L	sf	8e-L)	sf	8aaXL)	sf	.	.	.
8cJ)	>]	8e-J	>]	8aaJ	>]	8fff)	>]	V43/V
=21	=21	=21	=21	=21	=21	=21	=21	=21
!LO:TX:b:i:t=cresc.	!	!	!	!LO:TX:b:i:t=cresc.	!	!LO:TX:b:i:t=cresc.	!	!
8.B-L	.	8.dL	.	8.bb-L	.	(8fff	.	V
.	.	.	.	.	.	4ggg-	sf	.Ger6
*clefC4	*	*	*	*	*	*	*	*
(16b-Jk	.	(16ddJk	.	(16bb-Jk	.	.	.	.
8cc-L	sf	8ee-L)	sf	8aaXL)	sf	.	.	.
8ccJ)	.	8ee-J	.	8aaJ	.	8fff)	.	V2/V
=22	=22	=22	=22	=22	=22	=22	=22	=22
[2b-	f	8b-	f	8dd 8bb-	f	8fff	f	V7
.	.	.	.	16qqeee-/LL	.	16qqggg-/LL	.	.
.	.	.	.	16qqddd/	.	16qqfff/	.	.
.	.	.	.	16qqccc/JJ	.	16qqeee-/JJ	.	.
.	.	8r	.	(32dddLLL	.	(32fffLLL	.	.
.	.	.	.	32fff)	.	32aaa-)	.	.
.	.	.	.	32eee-'	.	32ggg-'	.	.
.	.	.	.	32ddd'JJJ	.	32fff'JJJ	.	.
.	.	8e-	.	8eee-	.	8ggg-	.	i
.	.	.	.	16qqfff/LL	.	16qqaaa-/LL	.	.
.	.	.	.	16qqeee-/	.	16qqggg-/	.	.
.	.	.	.	16qqddd/JJ	.	16qqfff/JJ	.	.
.	.	8r	.	(32eee-LLL	.	(32ggg-LLL	.	.
.	.	.	.	32ggg-)	.	32bbb-)	.	.
.	.	.	.	32fff'	.	32aaa-'	.	.
.	.	.	.	32eee-'JJJ	.	32ggg-'JJJ	.	.
=23	=23	=23	=23	=23	=23	=23	=23	=23
8b-]	.	8B-	.	8ddd	.	(8fff	.	V7
*clefF4	*	*	*	*	*	*	*	*
(32B-LLL	.	(32fLLL	.	(32ddLLL	.	4b-) 4bb-	.	i
32BB-)	.	32cc-)	.	32aa-)	.	.	.	.
32C'	.	32b-'	.	32gg-'	.	.	.	.
32D'JJJ	.	32a-'JJJ	.	32ff'JJJ	.	.	.	.
8E-	.	8g-	.	8ee-	.	.	.	.
.	.	16qqa-/LL	.	16qqff/LL	.	.	.	.
.	.	16qqg-/	.	16qqee-/	.	.	.	.
.	.	16qqf/JJ	.	16qqdd/JJ	.	.	.	.
(32E-LLL	.	(32g-LLL	.	(32ee-LLL	.	[8B- [8b-	.	.
32EE-)	.	32b-)	.	32gg-)	.	.	.	.
32GG-'	.	32a-'	.	32ff'	.	.	.	.
32AA-'JJJ	.	32g-'JJJ	.	32ee-'JJJ	.	.	.	.
=24	=24	=24	=24	=24	=24	=24	=24	=24
4BB-	.	4f	.	4dd	.	(32B-LLL] 32b-]	.	V
.	.	.	.	.	.	32b-	.	.
.	.	.	.	.	.	32B-	.	.
.	.	.	.	.	.	32b-JJJ	.	.
.	.	.	.	.	.	32dLLL	.	.
.	.	.	.	.	.	32b-	.	.
.	.	.	.	.	.	32f	.	.
.	.	.	.	.	.	32b-JJJ	.	.
!	!	!	!	!LO:TX:a:i:t=dim.	!	!	!	!
4r	.	4r	.	4r	.	32aXLLL	.	.
.	.	.	.	.	.	32b-	.	.
.	.	.	.	.	.	32dd	.	.
.	.	.	.	.	.	32b-JJJ	.	.
.	.	.	.	.	.	32ffLLL	.	V7
.	.	.	.	.	.	32b-	.	.
.	.	.	.	.	.	32aa-	.	.
.	.	.	.	.	.	32b-JJJ)	.	.
=25	=25	=25	=25	=25	=25	=25	=25	=25
!LO:TX:b:i:t=espressivo	!	!	!	!	!LO:DY:a	!	!	!
(8e-L	.	2r	.	2r	p	(32gg-LLL	.	i
.	.	.	.	.	.	32b-	.	.
.	.	.	.	.	.	32ee-	.	.
.	.	.	.	.	.	32b-JJJ	.	.
8g-J	.	.	.	.	.	32ddLLL	.	i6
.	.	.	.	.	.	32b-	.	.
.	.	.	.	.	.	32ee-	.	.
.	.	.	.	.	.	32b-JJJ	.	.
8.b-L	.	.	.	.	.	32ddLLL	.	V
.	.	.	.	.	.	32b-	.	.
.	.	.	.	.	.	32ee-	.	.
.	.	.	.	.	.	32b-JJJ	.	.
.	.	.	.	.	.	32ffLLL	.	.
.	.	.	.	.	.	32b-	.	.
16e-Jk)	.	.	.	.	.	32gg-	.	i
.	.	.	.	.	.	32b-JJJ)	.	.
=26	=26	=26	=26	=26	=26	=26	=26	=26
(8dL	.	2r	.	2r	.	(32aa-LLL	.	V65
.	.	.	.	.	.	32b-	.	.
.	.	.	.	.	.	32gg-	.	.
.	.	.	.	.	.	32b-JJJ	.	.
8fJ	.	.	.	.	.	32ffLLL	.	V43
.	.	.	.	.	.	32b-	.	.
.	.	.	.	.	.	32ee-	.	.
.	.	.	.	.	.	32b-JJJ	.	.
8.b-L	.	.	.	.	.	32ddLLL	.	V
.	.	.	.	.	.	32b-	.	.
.	.	.	.	.	.	32ff	.	.
.	.	.	.	.	.	32b-JJJ	.	.
.	.	.	.	.	.	32cc-LLL	.	.
.	.	.	.	.	.	32b-	.	.
16a-Jk)	.	.	.	.	.	32dd	.	V2
.	.	.	.	.	.	32b-JJJ)	.	.
=27	=27	=27	=27	=27	=27	=27	=27	=27
(16g-LL	.	2e-	p	32r	.	(8ee-L	.	i
.	.	.	.	(32b-LLL	p	.	.	.
16e-	.	.	.	32gg-	.	.	.	.
.	.	.	.	32b-JJJ)	.	.	.	.
16d	.	.	.	32r	.	8gg-J	.	.
.	.	.	.	(32b-LLL	.	.	.	.
16e-JJ	.	.	.	32gg-	.	.	.	.
.	.	.	.	32b-JJJ)	.	.	.	.
16dLL	.	.	.	32r	.	8.bb-L	.	.
.	.	.	.	(32b-LLL	.	.	.	.
16e-	.	.	.	32gg-	.	.	.	.
.	.	.	.	32b-JJJ	.	.	.	.
16f	.	.	.	32aa-LLL	.	.	.	.
.	.	.	.	32b-	.	.	.	.
16g-JJ	.	.	.	32bb-	.	16ee-Jk)	.	i6
.	.	.	.	32b-JJJ)	.	.	.	.
=28	=28	=28	=28	=28	=28	=28	=28	=28
16a-LL	.	[4B-	.	32r	.	(8ddL	.	V7
.	.	.	.	(32b-LLL	.	.	.	.
16g-	.	.	.	32bb-	.	.	.	.
.	.	.	.	32b-JJJ)	.	.	.	.
16f	.	.	.	(32aa-LLL	.	8ffJ	.	.
.	.	.	.	32b-	.	.	.	.
16e-JJ	.	.	.	32gg-	.	.	.	.
.	.	.	.	32b-JJJ)	.	.	.	.
16dLL	.	8B-_	.	(32ffLLL	.	8.bb-L	.	.
.	.	.	.	32b-	.	.	.	.
16f	.	.	.	32aa-	.	.	.	.
.	.	.	.	32b-JJJ)	.	.	.	.
16B-	.	32B-LLL]	.	(32ddLLL	.	.	.	.
.	.	(32B-	.	32b-	.	.	.	.
16A-JJ)	.	32f	.	32ff	.	16dddJk)	.	.
.	.	32B-JJJ)	.	32b-JJJ)	.	.	.	.
=29	=29	=29	=29	=29	=29	=29	=29	=29
(8G-L	.	32r	.	4r	.	(8eee-L	.	i6
.	.	(32e-LLL	.	.	.	.	.	.
.	.	32g-	.	.	.	.	.	.
.	.	32e-JJJ	.	.	.	.	.	.
8E-	.	32b-LLL	.	.	.	8ggg-J	.	i
.	.	32e-	.	.	.	.	.	.
.	.	32g-	.	.	.	.	.	.
.	.	32e-JJJ)	.	.	.	.	.	.
8.D-	sfp	4r	.	32r	.	8.bbb-L	sfp	v6
.	.	.	.	(32b-LLL	.	.	.	.
.	.	.	.	32dd-X	.	.	.	.
.	.	.	.	32b-JJJ	.	.	.	.
.	.	.	.	32ffLLL	.	.	.	.
.	.	.	.	32b-	.	.	.	.
16FJk)	.	.	.	32dd-	.	16ddd-XJk)	.	v64
.	.	.	.	32b-JJJ)	.	.	.	.
=30	=30	=30	=30	=30	=30	=30	=30	=30
(8A-L	.	32r	.	4r	.	(8ccc-L	.	iv
.	.	(32c-LLL	.	.	.	.	.	.
.	.	32e-	.	.	.	.	.	.
.	.	32c-JJJ	.	.	.	.	.	.
8C-	.	32a-LLL	.	.	.	8eee-J	.	iv6
.	.	32c-	.	.	.	.	.	.
.	.	32e-	.	.	.	.	.	.
.	.	32c-JJJ)	.	.	.	.	.	.
8.BB-	sfp	4r	.	32r	.	8.ggg-L	sfp	III6
.	.	.	.	(32g-LLL	.	.	.	.
.	.	.	.	32b-	.	.	.	.
.	.	.	.	32g-JJJ	.	.	.	.
.	.	.	.	32dd-LLL	.	.	.	.
.	.	.	.	32g-	.	.	.	.
16D-Jk)	.	.	.	32b-	.	16bb-Jk)	.	III64
.	.	.	.	32g-JJJ)	.	.	.	.
=31	=31	=31	=31	=31	=31	=31	=31	=31
(8F-L	.	32r	.	4r	.	(8aa-L	.	.bII
.	.	(32A-LLL	.	.	.	.	.	.
.	.	32c-	.	.	.	.	.	.
.	.	32A-JJJ	.	.	.	.	.	.
8AA-	.	32f-LLL	.	.	.	8ccc-J	.	.bII6
.	.	32A-	.	.	.	.	.	.
.	.	32c-	.	.	.	.	.	.
.	.	32A-JJJ)	.	.	.	.	.	.
8.GG-	sfp	32r	.	32r	.	8.eee-L	sfp	i6
.	.	(32B-LLL	.	(32b-LLL	.	.	.	.
.	.	32e-	.	32ee-	.	.	.	.
.	.	32B-JJJ	.	32b-JJJ	.	.	.	.
.	.	32g-LLL	.	32gg-LLL	.	.	.	.
.	.	32e-	.	32ee-	.	.	.	.
16E-Jk)	.	32b-	.	32bb-	.	16gg-Jk)	.	.
.	.	32B-JJJ)	.	32b-JJJ)	.	.	.	.
=32	=32	=32	=32	=32	=32	=32	=32	=32
[8FF	.	4.AX	.	(8cc	.	(8eee-	.	V7/V
32FFLLL]	.	.	.	4c)	.	4f) 4ee-	.	.
32AAX	.	.	.	.	.	.	.	.
32C	.	.	.	.	.	.	.	.
32E-JJJ	.	.	.	.	.	.	.	.
32FLLL	.	.	.	.	.	.	.	.
32AX	.	.	.	.	.	.	.	.
32c	.	.	.	.	.	.	.	.
32e-JJJ	.	.	.	.	.	.	.	.
(16eXLL	.	(16.aXLL	.	8r	.	8r	.	.
16fJJ)	.	.	.	.	.	.	.	.
.	.	32ee-JJk)	.	.	.	.	.	.
=33	=33	=33	=33	=33	=33	=33	=33	=33
.	.	32qqdd/LLL	.	.	.	.	.	.
.	.	32qqee-/	.	.	.	.	.	.
.	.	32qqff/JJJ	.	.	.	.	.	.
[8BB-	.	(8ee-L	.	8aa-	.	8fff	.	V7
32BB-LLL]	.	16ddJk)	.	4d 4f	.	4B- 4a-	.	.
32D	.	.	.	.	.	.	.	.
32F	.	16r	.	.	.	.	.	.
32A-JJJ	.	.	.	.	.	.	.	.
32B-LLL	.	8r	.	.	.	.	.	.
32d	.	.	.	.	.	.	.	.
32f	.	.	.	.	.	.	.	.
32a-JJJ	.	.	.	.	.	.	.	.
(16aXLL	.	16r	.	8r	.	(16.ddLL	.	.
16b-JJ)	.	16r	.	.	.	.	.	.
.	.	.	.	.	.	32aa-JJk)	.	.
=34	=34	=34	=34	=34	=34	=34	=34	=34
32r	.	(16d-XLL	.	(16b-LL	.	(16aa-LL	.	V7/iv
(32EE-LLL	.	.	.	.	.	.	.	.
32E-)	.	32b-JJk)	.	32dd-XJJk)	.	32ggJJk)	.	.
32E-'JJJ	.	32r	.	32r	.	32r	.	.
32r	.	(16c-LL	.	(16e-LL	.	(16aa-LL	.	iv
(32AA-LLL	.	.	.	.	.	.	.	.
32A-)	.	32e-JJk)	.	32ccJJk)	.	32gg-XJJk)	.	V7/VII
32A-'JJJ	.	32r	.	32r	.	32r	.	.
32r	.	(16c-XLL	.	(16a-LL	.	(16gg-LL	.	#viio7
(32DLLL	.	.	.	.	.	.	.	.
32d)	.	32a-JJk)	.	32cc-XJJk)	.	32ffJJk)	.	.
32d'JJJ	.	32r	.	32r	.	32r	.	.
32r	.	(16B-LL	.	(16g-LL	.	(16ffLL	.	i
(32E-LLL	.	.	.	.	.	.	.	.
32e-)	.	32g-JJk)	.	32b-JJk)	.	32ee-JJk)	.	.
32e-'JJJ	.	32r	.	32r	.	32r	.	.
=35	=35	=35	=35	=35	=35	=35	=35	=35
(32e-LLL	.	(32g-LLL	.	(32b-LLL	.	(32ee-LLL	.	i
32fJJJ)	.	32b-JJJ)	.	32a-JJJ)	.	32ddJJJ)	.	ii%43/iv
32r	.	32r	.	32r	.	32r	.	.
32f	.	32a-	.	32cc-	.	32dd	.	#viio65
(32fLLL	.	(32a-LLL	.	(32cc-LLL	.	(32ddLLL	.	.
32g-JJJ)	.	32g-JJJ)	.	32b-JJJ)	.	32ee-JJJ)	.	i6
16r	.	32r	.	16r	.	32r	.	.
.	.	32dd	.	.	.	32ff-	.	@none
!	!	!LO:TX:a:i:t=cresc.	!	!LO:TX:a:i:t=cresc.	!	!	!	!
8r	.	(32ddLLL	.	32r	.	(32ffLLL	.	.
.	.	32ee-)	.	32ff-	.	32gg-)	.	.
!	!	!	!	!LO:TX:b:i:t=cresc.	!	!	!	!
.	.	(32ee-	.	(32ff-LLL	.	(32gg-	.	.
.	.	32dd-XJJJ)	.	32ee-)	.	32ggJJJ)	.	.
16.r	.	(32dd-LLL	.	(32ee-	.	(32ggLLL	.	V65/iv
.	.	32cc-)	.	32dd-JJJ)	.	32aa-)	.	.
.	.	(32cc-	.	16r	.	(32aa-	.	.
!LO:TX:b:i:t=cresc.	!	!	!	!	!	!	!	!
32G	.	32e-JJJ)	.	.	.	32bb-JJJ)	.	.
=36	=36	=36	=36	=36	=36	=36	=36	=36
(32GLLL	.	(32e-LLL	.	(32dd-LLL	.	(32bb-LLL	.	V65/V
32A-)	.	32ee-)	.	32cc-)	.	32ccc-)	.	iv
(32A-	.	(32ee-	.	(32cc-	.	(32ccc-	.	.
32FJJJ)	.	32a-JJJ)	.	32b-JJJ)	.	32dddJJJ)	.	V43
(32FLLL	.	(32a-LLL	.	(32b-LLL	.	(32dddLLL	.	.
32G-X)	.	32b-)	.	32bb-)	.	32eee-)	.	i6
(32G-	.	(32b-	.	(32bb-	.	(32eee-	.	.
32DJJJ)	.	32B-JJJ)	.	32aa-JJJ)	.	32fffJJJ)	.	V65
(32DLLL	.	(32B-LLL	.	(32aa-LLL	.	(32fffLLL	.	.
32E-)	.	32b-)	.	32gg-)	.	32ggg-)	.	i
(32E-	.	(32b-	.	(32gg-	.	(32ggg-	.	.
32D-XJJJ)	.	32e-JJJ)	.	32ggJJJ)	.	32gggJJJ)	.	V2/iv
(32D-LLL	.	(32e-LLL	.	(32ggLLL	.	(32gggLLL	.	.
32C-)	.	32ee-)	.	32aa-)	.	32aaa-)	.	iv6
(32BB-	.	(32g	.	(32bb-	.	(32bbb-	.	#viio6/iv
32AA-JJJ)	.	32a-JJJ)	.	32ccc-JJJ)	.	32cccc-JJJ)	.	iv
=37	=37	=37	=37	=37	=37	=37	=37	=37
8AAX'	f	8e-' 8g-X	f	8ee-' 8ccc	f	8cccc'	f	#viio7/V
8r	.	8r	.	8r	.	8r	.	.
8C-X'	f	8E-' 8e-	f	8e-' 8g-	f	8aX'	f	.Ger6
8r	.	8r	.	8r	.	8r	.	.
=38	=38	=38	=38	=38	=38	=38	=38	=38
8BB-	p	16e-	p	16g-	p	8.B- 8.b-	p	V(64)
.	.	16r	.	16r	.	.	.	.
8r	.	(8e-L	.	(8g-L	.	.	.	.
.	.	.	.	.	.	16qqbb-/LL	.	.
.	.	.	.	.	.	16qqddd-/JJ	.	.
.	.	.	.	.	.	32.ccc-'LLL	.	.
.	.	.	.	.	.	64bb-'JJJk	.	.
4r	.	8f	.	8a-	.	16bb-	.	.
.	.	.	.	.	.	16qqbb-/LL	.	.
.	.	.	.	.	.	16qqddd-/JJ	.	.
.	.	.	.	.	.	32.ccc-'LLL	.	.
.	.	.	.	.	.	64bb-'JJJk	.	.
.	.	8g-J)	.	8b-J)	.	16bb-	.	.
.	.	.	.	.	.	16qqbb-/LL	.	.
.	.	.	.	.	.	16qqddd-/JJ	.	.
.	.	.	.	.	.	32.ccc-'LLL	.	.
.	.	.	.	.	.	64bb-'JJJk	.	.
=39	=39	=39	=39	=39	=39	=39	=39	=39
8r	.	(8a-L	.	(8cc-L	.	16bb-	.	V7(9)
.	.	.	.	.	.	16r	.	.
16r	.	8cc-	.	8ff	.	(8aa-L	.	.
16qqBB-/LL	.	.	.	.	.	.	.	.
16qqD-/JJ	.	.	.	.	.	.	.	.
32.C-'LLL	.	.	.	.	.	.	.	.
64BB-'JJJk	.	.	.	.	.	.	.	.
16BB-	.	8b-	.	8ee-	.	8gg-	.	V(64)
16qqBB-/LL	.	.	.	.	.	.	.	.
16qqD-/JJ	.	.	.	.	.	.	.	.
32.C-'LLL	.	.	.	.	.	.	.	.
64BB-'JJJk	.	.	.	.	.	.	.	.
16BB-	.	8ddJ)	.	8a-J)	.	8ffJ)	.	V7
16qqBB-/LL	.	.	.	.	.	.	.	.
16qqD-/JJ	.	.	.	.	.	.	.	.
32.C-'LLL	.	.	.	.	.	.	.	.
64BB-'JJJk	.	.	.	.	.	.	.	.
=40	=40	=40	=40	=40	=40	=40	=40	=40
16EE-	.	16ee-	.	16g-	.	16ee-	.	i\\
16r	.	16r	.	16r	.	32r	.	.
.	.	.	.	.	.	32bb-	.	.
8r	.	(8e-L	.	(8g-L	.	32r	.	.
.	.	.	.	.	.	(64bb-LLLL	.	.
.	.	.	.	.	.	64ddd-J)	.	.
.	.	.	.	.	.	32ccc-'	.	.
.	.	.	.	.	.	32bb-'JJJ	.	.
4r	.	8f	.	8a-	.	32r	.	.
.	.	.	.	.	.	(64bb-LLLL	.	.
.	.	.	.	.	.	64ddd-J)	.	.
.	.	.	.	.	.	32ccc-'	.	.
.	.	.	.	.	.	32bb-'JJJ	.	.
.	.	8g-J)	.	8b-J)	.	32r	.	.
.	.	.	.	.	.	(64bb-LLLL	.	.
.	.	.	.	.	.	64ddd-J)	.	.
.	.	.	.	.	.	32ccc-'	.	.
.	.	.	.	.	.	32bb-'JJJ	.	.
=41	=41	=41	=41	=41	=41	=41	=41	=41
16.r	.	(8a-L	.	(8cc-L	.	16bb-	.	V7
.	.	.	.	.	.	16r	.	.
32BB-	.	.	.	.	.	.	.	.
32r	.	8cc-	.	8ff	.	(8aa-L	.	.
(64BB-LLLL	.	.	.	.	.	.	.	.
64D-J)	.	.	.	.	.	.	.	.
32C-'	.	.	.	.	.	.	.	.
32BB-'JJJ	.	.	.	.	.	.	.	.
32r	.	8b-	.	8ee-	.	8gg-	.	.
(64BB-LLLL	.	.	.	.	.	.	.	.
64D-J)	.	.	.	.	.	.	.	.
32C-	.	.	.	.	.	.	.	.
32BB-'JJJ	.	.	.	.	.	.	.	.
32r	.	8a-J)	.	8b-J)	.	8ffJ)	.	.
(64BB-LLLL	.	.	.	.	.	.	.	.
64DJ)	.	.	.	.	.	.	.	.
32C'	.	.	.	.	.	.	.	.
32BB-'JJJ	.	.	.	.	.	.	.	.
=42	=42	=42	=42	=42	=42	=42	=42	=42
(8E-L	pp	(32g-LLL	pp	(8b-L	pp	(8ee-L	pp	i
.	.	32B-	.	.	.	.	.	.
.	.	32e-	.	.	.	.	.	.
.	.	32B-JJJ)	.	.	.	.	.	.
8G-	.	(32e-LLL	.	8ee-	.	8bb-J)	.	i6
.	.	32B-	.	.	.	.	.	.
.	.	32b-	.	.	.	.	.	.
.	.	32B-JJJ)	.	.	.	.	.	.
8F	.	(32a-LLL	.	8dd	.	(8bb-L	.	V43
.	.	32B-	.	.	.	.	.	.
.	.	32f	.	.	.	.	.	.
.	.	32B-JJJ)	.	.	.	.	.	.
8BB-J)	.	(32dLLL	.	8ffJ)	.	8dddJ)	.	V7
.	.	32B-	.	.	.	.	.	.
.	.	32A-	.	.	.	.	.	.
.	.	32B-JJJ)	.	.	.	.	.	.
=43	=43	=43	=43	=43	=43	=43	=43	=43
(8.E-L	<	(32G-LLL	<	(8.gg-L	<	(8.eee-L	<	i
.	.	32B-	.	.	.	.	.	.
.	.	32e-	.	.	.	.	.	.
.	.	32B-JJJ)	.	.	.	.	.	.
.	.	(32g-LLL	.	.	.	.	.	.
.	.	32B-	.	.	.	.	.	.
16G-K	.	32b-	.	16ee-Jk)	.	16bb-Jk)	.	.
.	.	32B-JJJ)	.	.	.	.	.	.
8F	[ >	(32a-LLL	[ >	(8ddL	[ >	(8bb-L	[ >	V43
.	.	32B-	.	.	.	.	.	.
.	.	32f	.	.	.	.	.	.
.	.	32B-JJJ)	.	.	.	.	.	.
8BB-J)	]]	(32dLLL	.	8ffJ)	]]	8dddJ)	]]	V7
.	.	32B-	.	.	.	.	.	.
.	.	32a-	.	.	.	.	.	.
.	.	32B-JJJ)	]]	.	.	.	.	.
=44	=44	=44	=44	=44	=44	=44	=44	=44
8E-	.	8g-	.	8ee-	.	8eee-	.	i\\
8r	.	16.r	.	16.r	.	16.r	.	.
.	.	32dd	.	32aa-	.	32ccc-	.	.
8r	.	16ee-	.	16gg-	.	16bb-	.	.
.	.	32r	.	32r	.	32r	.	.
.	.	32cc-	.	32ff-	.	32aa-	.	.
16.r	.	16b-	.	16ee-	.	16gg-	.	.
.	.	32r	.	32r	.	32r	.	.
32B-	.	32c	.	32a-	.	32a-	.	V7
=45	=45	=45	=45	=45	=45	=45	=45	=45
8E-	.	8e-	.	8g-	.	8ee-	.	i
8r	.	16.r	.	16.r	.	8r	.	.
.	.	32a-	.	32cc-	.	.	.	.
16.r	.	16g-	.	16b-	.	8r	.	.
.	.	32r	.	32r	.	.	.	.
32c-	.	32f	.	32a-	.	.	.	.
16B-	.	16e-	.	16g-	.	16.r	.	V(64)
32r	.	32r	.	32r	.	.	.	.
32BB-	.	32A-	.	32d 32f	.	32B- 32b-	.	V7
=46	=46	=46	=46	=46	=46	=46	=46	=46
8EE-	.	8G-	.	8e-	.	8B- 8b-	.	i\\
8r	.	8r	.	8r	.	8r	.	.
8d-	.	8f-	.	8b-	.	8gg-	.	V43/VI
8r	.	8r	.	8r	.	8r	.	.
=47	=47	=47	=47	=47	=47	=47	=47	=47
(8c-L	.	2r	.	2r	.	(32ee-LLL	.	III.I
.	.	.	.	.	.	32gg-	.	.
.	.	.	.	.	.	32cc-	.	.
.	.	.	.	.	.	32gg-JJJ	.	.
8e-	.	.	.	.	.	32b-LLL	.	.
.	.	.	.	.	.	32gg-	.	.
.	.	.	.	.	.	32cc-	.	.
.	.	.	.	.	.	32gg-JJJ	.	.
8.g-	.	.	.	.	.	32b-LLL	.	.
.	.	.	.	.	.	32gg-	.	.
.	.	.	.	.	.	32cc-	.	.
.	.	.	.	.	.	32gg-JJJ	.	.
.	.	.	.	.	.	32dd-LLL	.	.
.	.	.	.	.	.	32gg-	.	.
16c-Jk)	.	.	.	.	.	32ee-	.	.
.	.	.	.	.	.	32gg-JJJ)	.	.
=48	=48	=48	=48	=48	=48	=48	=48	=48
(8B-L	.	2r	.	4r	.	(32ff-LLL	.	V65
.	.	.	.	.	.	32gg-	.	.
.	.	.	.	.	.	32ee-	.	.
.	.	.	.	.	.	32gg-JJJ	.	.
8d-	.	.	.	.	.	32dd-LLL	.	.
.	.	.	.	.	.	32gg-	.	.
.	.	.	.	.	.	32cc-	.	.
.	.	.	.	.	.	32gg-JJJ	.	.
8.g-	.	.	.	8r	.	32b-LLL	.	.
.	.	.	.	.	.	32gg-	.	.
.	.	.	.	.	.	32dd-	.	.
.	.	.	.	.	.	32gg-JJJ	.	.
.	.	.	.	16r	.	32aa-LLL	.	.
.	.	.	.	.	.	32gg-	.	.
16f-XJk)	.	.	.	(16dd-	.	32bb-	.	V2
.	.	.	.	.	.	32gg-JJJ)	.	.
=49	=49	=49	=49	=49	=49	=49	=49	=49
(16e-LL	.	(2c-	p	(8cc-L)	.	(32ccc-LLL	.	I
.	.	.	.	.	.	32eee-	.	.
16c-	.	.	.	.	.	32gg-	.	.
.	.	.	.	.	.	32eee-JJJ)	.	.
16B-	.	.	.	8ee-J	.	32r	.	.
.	.	.	.	.	.	(32eee-LLL	.	.
16c-JJ	.	.	.	.	.	32gg-	.	.
.	.	.	.	.	.	32eee-JJJ)	.	.
16B-LL	.	.	.	8.gg-L	.	32r	.	.
.	.	.	.	.	.	(32eee-LLL	.	.
16c-	.	.	.	.	.	32gg-	.	.
.	.	.	.	.	.	32eee-JJJ)	.	.
16d-	.	.	.	.	.	32r	.	.
.	.	.	.	.	.	(32eee-LLL	.	.
16e-JJ)	.	.	.	16cc-Jk)	.	32gg-	.	.
.	.	.	.	.	.	32eee-JJJ)	.	.
=50	=50	=50	=50	=50	=50	=50	=50	=50
(16f-LL	.	[2G-)	.	(8b-L	.	32r	.	V7
.	.	.	.	.	.	(32ddd-LLL	.	.
16e-	.	.	.	.	.	32gg-	.	.
.	.	.	.	.	.	32ddd-JJJ)	.	.
16d-	.	.	.	8dd-	.	32r	.	.
.	.	.	.	.	.	(32fff-LLL	.	.
16c-JJ	.	.	.	.	.	32gg-	.	.
.	.	.	.	.	.	32fff-JJJ)	.	.
16B-LL	.	.	.	8.gg-	.	32r	.	.
.	.	.	.	.	.	(32bb-LLL	.	.
16d-	.	.	.	.	.	32gg-	.	.
.	.	.	.	.	.	32bb-JJJ)	.	.
16G-	.	.	.	.	.	32r	.	.
.	.	.	.	.	.	(32ddd-LLL	.	.
16F-JJ)	.	.	.	16b-Jk)	.	32gg-	.	.
.	.	.	.	.	.	32ddd-JJJ)	.	.
=51	=51	=51	=51	=51	=51	=51	=51	=51
(16E-LL	.	8G-L]	.	(8cc-L	.	32r	.	I6
.	.	.	.	.	.	(32eee-LLL	.	.
16D-	.	.	.	.	.	32gg-	.	.
.	.	.	.	.	.	32eee-JJJ)	.	.
16C-	.	(16c-L	.	8ee-	.	32r	.	I
.	.	.	.	.	.	(32eee-LLL	.	.
16BB-JJ	.	16B-JJ	.	.	.	32gg-	.	.
.	.	.	.	.	.	32eee-JJJ)	.	.
16C-LL	.	16c-LL	.	8gg-	.	32r	.	V7/IV
.	.	.	.	.	.	(32eee-LLL	.	.
16BB--X	.	16B--X	.	.	.	32ccc-	.	.
.	.	.	.	.	.	32eee-JJJ)	.	.
16GG-	.	16G-	.	8bb--XJ)	.	32r	.	.
.	.	.	.	.	.	(32ccc-LLL	.	.
16EE-JJ)	.	16E-JJ)	.	.	.	32ggg-	.	.
.	.	.	.	.	.	32ccc-JJJ)	.	.
=52	=52	=52	=52	=52	=52	=52	=52	=52
(8FF-L	.	(32F-LLL	.	(8aa-L	.	(16ccc-KL	.	VI.I
.	.	32c-	.	.	.	.	.	.
.	.	32A-	.	.	.	8fff-	.	.
.	.	32c-JJJ)	.	.	.	.	.	.
8AA-	.	32r	.	8ff-	.	.	.	.
.	.	(32c-LLL	.	.	.	.	.	.
.	.	32A-	.	.	.	8aaa-)	.	.
.	.	32c-JJJ)	.	.	.	.	.	.
8.C-	.	32r	.	8.cc-	.	.	.	.
.	.	(32c-LLL	.	.	.	.	.	.
.	.	32A-	.	.	.	16ccc-L	.	.
.	.	32c-JJJ	.	.	.	.	.	.
.	.	32A-LLL	.	.	.	16ccc-	.	.
.	.	32c-	.	.	.	.	.	.
16FF-Jk)	.	32A-	.	16aa-Jk)	.	16ccc-JJ	.	.
.	.	32c-JJJ)	.	.	.	.	.	.
=53	=53	=53	=53	=53	=53	=53	=53	=53
(8EE-L	.	32r	.	(8bb--XL	.	(16ccc-KL	.	V65
.	.	(32c-LLL	.	.	.	.	.	.
.	.	32G-	.	.	.	8ggg-	.	.
.	.	32c-JJJ)	.	.	.	.	.	.
8GG-	.	32r	.	8gg-	.	.	.	.
.	.	(32c-LLL	.	.	.	.	.	.
.	.	32G-	.	.	.	8bbb--X)	.	.
.	.	32c-JJJ)	.	.	.	.	.	.
8.C-	.	32r	.	8.cc-	.	.	.	.
.	.	(32c-LLL	.	.	.	.	.	.
.	.	32G-	.	.	.	16ccc-L	.	.
.	.	32c-JJJ)	.	.	.	.	.	.
.	.	(32G-LLL	.	.	.	16ccc-	.	.
.	.	32c-	.	.	.	.	.	.
16EE-Jk)	.	32G-	.	16bb--Jk)	.	16ccc-JJ	.	.
.	.	32c-JJJ)	.	.	.	.	.	.
=54	=54	=54	=54	=54	=54	=54	=54	=54
!LO:TX:b:i:t=cresc.	!	!	!	!	!	!	!	!
!LO:TX:a:i:t=cresc.	!	!	!	!	!	!LO:TX:b:i:t=cresc.	!	!
(8EE-L	.	(4.EX	.	32r	.	2bbX	.	#v.i
!	!	!	!	!LO:TX:b:i:t=cresc.	!	!	!	!
.	.	.	.	(32ggLLL	.	.	.	.
.	.	.	.	32eeX	.	.	.	.
.	.	.	.	32ggJJJ)	.	.	.	.
8GGJ	.	.	.	32r	.	.	.	.
.	.	.	.	(32ggLLL	.	.	.	.
.	.	.	.	32ee	.	.	.	.
.	.	.	.	32ggJJJ)	.	.	.	.
8BBXL	.	.	.	32r	.	.	.	.
.	.	.	.	(32ggLLL	.	.	.	.
.	.	.	.	32ee	.	.	.	.
.	.	.	.	32ggJJJ)	.	.	.	.
16.EXL	.	8eX)	.	32r	.	.	.	.
.	.	.	.	(32ggLLL	.	.	.	.
.	.	.	.	32ee	.	.	.	.
32EEXJJk)	.	.	.	32ggJJJ)	.	.	.	.
=55	=55	=55	=55	=55	=55	=55	=55	=55
(8EEXL	.	2eX	.	32r	.	2ccc	.	iv64
.	.	.	.	(32aaXLLL	.	.	.	.
.	.	.	.	32eeX	.	.	.	.
.	.	.	.	32aaJJJ)	.	.	.	.
8AAXJ	.	.	.	32r	.	.	.	.
.	.	.	.	(32aaLLL	.	.	.	.
.	.	.	.	32ee	.	.	.	.
.	.	.	.	32aaJJJ)	.	.	.	.
8CL	.	.	.	32r	.	.	.	.
.	.	.	.	(32aaLLL	.	.	.	.
.	.	.	.	32ee	.	.	.	.
.	.	.	.	32aaJJJ)	.	.	.	.
16.EXL	.	.	.	32r	.	.	.	.
.	.	.	.	(32aaLLL	.	.	.	.
.	.	.	.	32ee	.	.	.	.
32EEJJk)	.	.	.	32aaJJJ)	.	.	.	.
=56	=56	=56	=56	=56	=56	=56	=56	=56
(8FFL	ff	(8FL [8f	ff	2cc 2aaX	ff	2cc 2ccc	ff	ii.V
8AAX	.	8AXJ 8f]	.	.	.	.	.	.
8C	.	8cL	.	.	.	.	.	.
16.FL	.	16.fL	.	.	.	.	.	.
32FFJJk)	.	32FJJk)	.	.	.	.	.	.
=57	=57	=57	=57	=57	=57	=57	=57	=57
!	!LO:DY:a	!	!LO:DY:a	!	!	!	!	!
4.F	sf sf >	4.F 4.f	sf >	8cc 8aaX	.	(32eee-LLL	sf	V7
.	.	.	.	.	.	32ccc)	.	.
.	.	.	.	.	.	32aaX'	.	.
.	.	.	.	.	.	32gg-'JJJ	.	.
.	.	.	.	4r	.	32ee-'LLL	>	.
.	.	.	.	.	.	32gg-'	.	.
.	.	.	.	.	.	32dd-'	.	.
.	.	.	.	.	.	32ff'JJJ	.	.
.	.	.	.	.	.	32cc'LLL	.	.
.	.	.	.	.	.	32ee-'	.	.
.	.	.	.	.	.	32b-'	.	.
.	.	.	.	.	.	32dd-'JJJ	.	.
*clefC4	*	*	*	*	*	*	*	*
([8f	]	8F	]]	8r	.	32aX'LLL	.	.
.	.	.	.	.	.	32cc'	.	.
.	.	.	.	.	.	32a'	.	.
.	.	.	.	.	.	32ff'JJJ	]]	.
=58	=58	=58	=58	=58	=58	=58	=58	=58
!	!	!LO:TX:a:t=pizz.	!	!	!	!	!	!
8fL]	p	8B-	p	4r	.	32dd-	.	i
.	.	.	.	.	.	32fLLL	p	.
.	.	.	.	.	.	32d-	.	.
.	.	.	.	.	.	32fJJJ	.	.
16.a-L	.	8r	.	.	.	32B-LLL	.	.
.	.	.	.	.	.	32f	.	.
.	.	.	.	.	.	32d-	.	.
32g-JJk	.	.	.	.	.	32fJJJ	.	.
8B-L	.	8F	.	[4ff	p	32cLLL	.	V7(4)
.	.	.	.	.	.	32f	.	.
.	.	.	.	.	.	32e-	.	.
.	.	.	.	.	.	32fJJJ	.	.
8AXJ)	.	8r	.	.	.	32cLLL	.	V7
.	.	.	.	.	.	32f	.	.
.	.	.	.	.	.	32e-	.	.
.	.	.	.	.	.	32fJJJ	.	.
=59	=59	=59	=59	=59	=59	=59	=59	=59
(8B-L	.	8d-L	.	4.ff]	.	32B-LLL	.	i6
.	.	.	.	.	.	32f	.	.
.	.	.	.	.	.	32d-	.	.
.	.	.	.	.	.	32fJJJ	.	.
16.fL	.	8AXJ	.	.	.	32cLLL	.	V65
.	.	.	.	.	.	32f	.	.
.	.	.	.	.	.	32e-	.	.
32cJJk)	.	.	.	.	.	32fJJJ	.	.
(8e-L	.	8B-L	.	.	.	32B-LLL	.	i
.	.	.	.	.	.	32f	.	.
.	.	.	.	.	.	32d-	.	.
.	.	.	.	.	.	32fJJJ	.	.
16dJk)	.	8A-J	.	[8b-	.	32B-LLL	.	V7/iv
.	.	.	.	.	.	32f	.	.
16r	.	.	.	.	.	32d	.	.
.	.	.	.	.	.	32fJJJ	.	.
=60	=60	=60	=60	=60	=60	=60	=60	=60
!LO:TX:a:t=pizz.	!	!	!	!	!	!	!	!
32G-LLL	.	8G-	.	(8b-L]	.	8e-	.	v.i6
32E-	.	.	.	.	.	.	.	.
32F	.	.	.	.	.	.	.	.
32G-JJJ	.	.	.	.	.	.	.	.
32A-LLL	.	8r	.	16.dd-L	.	8r	.	iv
32F	.	.	.	.	.	.	.	.
32G-	.	.	.	.	.	.	.	.
32A-JJJ	.	.	.	32cc-JJk	.	.	.	.
32B-LLL	.	4r	.	8e-L	.	8r	.	V(4)
32BB-	.	.	.	.	.	.	.	.
32D	.	.	.	.	.	.	.	.
32FJJJ	.	.	.	.	.	.	.	.
32B-LLL	.	.	.	8dJ)	.	8r	.	V2
32c-	.	.	.	.	.	.	.	.
32B-	.	.	.	.	.	.	.	.
32A-JJJ	.	.	.	.	.	.	.	.
=61	=61	=61	=61	=61	=61	=61	=61	=61
32G-LLL	.	4r	.	8e-	.	(8bb-L	.	i6
32B-	.	.	.	.	.	.	.	.
32G-	.	.	.	.	.	.	.	.
32E-JJJ	.	.	.	.	.	.	.	.
32DLLL	.	.	.	8r	.	16.bbb-L	.	V6
32F	.	.	.	.	.	.	.	.
32D	.	.	.	.	.	.	.	.
32BB-JJJ	.	.	.	.	.	32fffJJk	.	.
!	!	!LO:TX:a:t=arco	!	!	!	!	!	!
32E-LLL	.	(8dd-L	.	4r	.	8aaa-L	.	V7(4)/iv
32EE-	.	.	.	.	.	.	.	.
32GG	.	.	.	.	.	.	.	.
32BB-JJJ	.	.	.	.	.	.	.	.
32E-LLL	.	16.ff-XL	.	.	.	8gggJ)	.	V7(+b2)/iv
32BB-	.	.	.	.	.	.	.	.
32GG	.	.	.	.	.	.	.	.
32EE-JJJ	.	32b-JJk	.	.	.	.	.	.
=62	=62	=62	=62	=62	=62	=62	=62	=62
32AA-LLL	.	8dd-L	.	(8gg-L	.	8r	.	V7(4)/VII
32AA-	.	.	.	.	.	.	.	.
32C	.	.	.	.	.	.	.	.
32E-JJJ	.	.	.	.	.	.	.	.
32A-LLL	.	8ccJ)	.	16.bb--XL	.	8r	.	V7(+b2)/VII
32E-	.	.	.	.	.	.	.	.
32C	.	.	.	.	.	.	.	.
32AA-JJJ	.	.	.	32ee-JJk	.	.	.	.
32D-LLL	.	4r	.	16gg-KL	.	16r	.	V(4)/III
32F	.	.	.	.	.	.	.	.
32A-	.	.	.	8.ffJ)	.	(8ccc-XL	.	V7/III
32d-JJJ	.	.	.	.	.	.	.	.
32dLLL	.	.	.	.	.	.	.	.
32B-	.	.	.	.	.	.	.	.
32F	.	.	.	.	.	16bb-Jk	.	V6
32DJJJ	.	.	.	.	.	.	.	.
=63	=63	=63	=63	=63	=63	=63	=63	=63
32E-LLL	.	4r	.	16r	.	16aa-KL	.	i(4)
32EE-	.	.	.	.	.	.	.	.
32GG-	.	.	.	(8dd-L	.	8.gg-J)	.	V6/bII
32BB-JJJ	.	.	.	.	.	.	.	.
32E-LLL	.	.	.	.	.	.	.	.
32C-	.	.	.	.	.	.	.	.
32GG-	.	.	.	16cc-Jk	.	.	.	.
32EE-JJJ	.	.	.	.	.	.	.	.
32FF-LLL	.	16r	.	16b--XKL	.	8r	.	.bII
32AA-	.	.	.	.	.	.	.	.
32C-	.	(8e-L	.	8.a-J)	.	.	.	.
32F-JJJ	.	.	.	.	.	.	.	.
32FLLL	.	.	.	.	.	8r	.	V65/III
32D-	.	.	.	.	.	.	.	.
32AA-	.	16d-Jk	.	.	.	.	.	.
32FFJJJ	.	.	.	.	.	.	.	.
=64	=64	=64	=64	=64	=64	=64	=64	=64
32GG-LLL	.	16c-KL	.	16r	.	16r	.	III
32BB-	.	.	.	.	.	.	.	.
32D-	.	8B-)	.	(8f-L	.	(8ff-L	.	.
32G-JJJ	.	.	.	.	.	.	.	.
32GLLL	.	.	.	.	.	.	.	.
32E-	.	.	.	.	.	.	.	.
32BB-	.	([16E-Jk	.	16e-Jk	.	16ee-Jk	.	V6/iv
32GGJJJ	.	.	.	.	.	.	.	.
!LO:TX:b:i:t=cresc.	!	!LO:TX:b:i:t=cresc.	!	!LO:TX:b:i:t=cresc.	!	!LO:TX:b:i:t=cresc.	!	!
32AA-LLL	.	16E-LL]	.	16d-LL	.	16dd-LL	.	iv
32C-	.	.	.	.	.	.	.	.
32E-	.	16F-)	.	16c-)	.	16cc-)	.	.
32A-JJJ	.	.	.	.	.	.	.	.
32BB-LLL	.	(16d-	.	(16a-	.	(16aa-	.	i.V6/III
32D-	.	.	.	.	.	.	.	.
32G-X	.	[16G-JJ	.	16g-JJ	.	16gg-JJ	.	.
32B-JJJ	.	.	.	.	.	.	.	.
=65	=65	=65	=65	=65	=65	=65	=65	=65
32C-LLL	.	16G-LL]	.	16f-LL	.	16ff-LL	.	III
32E-	.	.	.	.	.	.	.	.
32G-	.	16A-)	.	16e-)	.	16ee-)	.	.
32c-JJJ	.	.	.	.	.	.	.	.
32CLLL	.	(16e-	.	(16b--X	.	(16bb--X	.	#viio7/iv
32E-	.	.	.	.	.	.	.	.
32A-	.	[16A-JJ	.	16a-JJ	.	16aa-JJ	.	.
32cJJJ	.	.	.	.	.	.	.	.
32D-LLL	.	16A-KL])	.	16g-LL	.	16gg-LL	.	iv
32F-	.	.	.	.	.	.	.	.
32A-	.	8B--X	.	16f-)	.	16ff-)	.	.
32d-JJJ	.	.	.	.	.	.	.	.
32E-LLL	.	.	.	(16dd-	.	(16ddd-	.	#viio65/iv
32G-	.	.	.	.	.	.	.	.
32c	.	16b--XJk	.	[16ccJJ)	.	[16cccJJ)	.	.
32e-JJJ	.	.	.	.	.	.	.	.
=66	=66	=66	=66	=66	=66	=66	=66	=66
32F-LLL	.	16a-KL	.	16ccKL]	.	16cccKL]	.	iv6
32A-	.	.	.	.	.	.	.	.
32d-	.	8A-	.	8dd-	.	8ddd-	.	.
32f-JJJ	.	.	.	.	.	.	.	.
32E-LLL	.	.	.	.	.	.	.	.
32A-	.	.	.	.	.	.	.	.
32c-	.	[16A-Jk	.	[16ee-Jk	.	[16eee-Jk	.	i64
32e-JJJ	.	.	.	.	.	.	.	.
32D-LLL	.	16A-KL]	.	(16ee-LL]	.	16eee-KL]	.	iv
32d-	.	.	.	.	.	.	.	.
32C-	.	8d-	.	16ff-	.	8fff-	.	.
32c-JJJ	.	.	.	.	.	.	.	.
32BB-LLL	.	.	.	16dd-	.	.	.	.
32B-	.	.	.	.	.	.	.	.
32AA-	.	[16d-Jk	.	16cc-XJJ)	.	[16fff-Jk	.	iv43
32A-JJJ	.	.	.	.	.	.	.	.
=67	=67	=67	=67	=67	=67	=67	=67	=67
32GGLLL	f	16d-KL]	f	(16b-LL	f	16fff-KL]	f	V65
32G	.	.	.	.	.	.	.	.
32FF-	.	8b-	.	16dd-	.	8ggg	.	.
32F-	.	.	.	.	.	.	.	.
32EE-	.	.	.	16ee-	.	.	.	.
32E-J	.	.	.	.	.	.	.	.
16D-JJ	.	16b-Jk	.	16ff-JJ)	.	[16gggJk	.	V2
16C-LL 16c-	.	4e-	.	(16ee-LL	.	16gggKL]	.	i6
16BB- 16B-	.	.	.	16dd-	.	8aaa-	.	.
16AA- 16A-	.	.	.	16cc-	.	.	.	.
32AA-L 32A-	.	.	.	16e-JJ) 16a-	.	16cc-Jk	.	i
32C-JJJ	.	.	.	.	.	.	.	.
=68	=68	=68	=68	=68	=68	=68	=68	=68
!	!	!LO:TX:a:t=pizz.	!	!	!	!	!	!
16EE-	p	32E-LLL	p	16e- 16g	p	8.b-	p	V[V
.	.	32G	.	.	.	.	.	.
16r	.	32B-	.	16r	.	.	.	.
.	.	32e-JJJ	.	.	.	.	.	.
!LO:TX:b:t=arco	!	!	!	!	!	!	!	!
8gL	.	32E-LLL	.	8b-L	.	.	.	.
.	.	32A-	.	.	.	.	.	.
.	.	.	.	.	.	16qqee-/LL	.	i
.	.	.	.	.	.	16qqgg-/JJ	.	.
.	.	32c-	.	.	.	32.ff-'LLL	.	.
.	.	32e-JJJ	.	.	.	.	.	.
.	.	.	.	.	.	64ee-'JJJk	.	.
(8g	.	32E-LLL	.	8b-	.	16ee-	.	.
.	.	32A-	.	.	.	.	.	.
.	.	.	.	.	.	16qqee-/LL	.	.
.	.	.	.	.	.	16qqgg-/JJ	.	.
.	.	32c-	.	.	.	32.ff-'LLL	.	.
.	.	32e-JJJ	.	.	.	.	.	.
.	.	.	.	.	.	64ee-'JJJk	.	.
8a-J	.	32E-LLL	.	8cc-J	.	16ee-	.	.
.	.	32B-	.	.	.	.	.	.
.	.	.	.	.	.	16qqee-/LL	.	.
.	.	.	.	.	.	16qqgg-/JJ	.	.
.	.	32c-	.	.	.	32.ff-'LLL	.	.
.	.	32e-JJJ	.	.	.	.	.	.
.	.	.	.	.	.	64ee-'JJJk	.	.
=69	=69	=69	=69	=69	=69	=69	=69	=69
8b-)	.	32E-LLL	.	8dd-	.	16ee-	.	V7
.	.	32B-	.	.	.	.	.	.
!	!	!	!	!	!	!LO:TX:a:t=pizz.	!	!
.	.	32d-	.	.	.	16r	.	.
.	.	32e-JJJ	.	.	.	.	.	.
16r	.	8r	.	8d-L 8b-	.	32e-LLL	.	.
.	.	.	.	.	.	32b-	.	.
16qqEE-/LL	.	.	.	.	.	.	.	.
16qqGG-/JJ	.	.	.	.	.	.	.	.
32.FF-'LLL	.	.	.	.	.	32dd-	.	.
.	.	.	.	.	.	32ee-JJJ	.	.
64EE-'JJJk	.	.	.	.	.	.	.	.
16EE-	.	8r	.	(8d- 8b-	.	32e-LLL	.	.
.	.	.	.	.	.	32b-	.	.
16qqEE-/LL	.	.	.	.	.	.	.	.
16qqGG-/JJ	.	.	.	.	.	.	.	.
32.FF-'LLL	.	.	.	.	.	32dd-	.	.
.	.	.	.	.	.	32ee-JJJ	.	.
64EE-'JJJk	.	.	.	.	.	.	.	.
!	!	!LO:TX:b:t=arco	!	!	!	!	!	!
16EE-	.	(8A-	.	8c-J 8a-	.	32e-LLL	.	i
.	.	.	.	.	.	32a-	.	.
16qqEE-/LL	.	.	.	.	.	.	.	.
16qqGG-/JJ	.	.	.	.	.	.	.	.
32.FF-'LLL	.	.	.	.	.	32cc-	.	.
.	.	.	.	.	.	32ee-JJJ	.	.
64EE-'JJJk	.	.	.	.	.	.	.	.
=70	=70	=70	=70	=70	=70	=70	=70	=70
8EE-	.	8.E-)	.	8B-) 8g	.	32e-LLL	.	V
.	.	.	.	.	.	32g	.	.
.	.	.	.	.	.	32b-	.	.
.	.	.	.	.	.	32ee-JJJ	.	.
8r	.	.	.	8r	.	32e-LLL	.	.
.	.	.	.	.	.	32g	.	.
.	.	16qqE-/LL	.	.	.	.	.	.
.	.	16qqG-/JJ	.	.	.	.	.	.
.	.	32.F-'LLL	.	.	.	32b-	.	.
.	.	.	.	.	.	32ee-JJJ	.	.
.	.	64E-'JJJk	.	.	.	.	.	.
4r	.	16E-	.	4r	.	32e-LLL	.	.
.	.	.	.	.	.	32g	.	.
.	.	16qqE-/LL	.	.	.	.	.	.
.	.	16qqG-/JJ	.	.	.	.	.	.
.	.	32.F-'LLL	.	.	.	32b-	.	.
.	.	.	.	.	.	32ee-JJJ	.	.
.	.	64E-'JJJk	.	.	.	.	.	.
.	.	16E-	.	.	.	32e-LLL	.	.
.	.	.	.	.	.	32g	.	.
.	.	16qqE-/LL	.	.	.	.	.	.
.	.	16qqG-/JJ	.	.	.	.	.	.
.	.	32.F-'LLL	.	.	.	32b-	.	.
.	.	.	.	.	.	32ee-JJJ	.	.
.	.	64E-'JJJk	.	.	.	.	.	.
=71	=71	=71	=71	=71	=71	=71	=71	=71
!LO:TX:a:i:t=poco rit.	!	!	!	!	!	!	!	!
2r	.	[8E-	pp	8r	.	32e-LLL	.	V
.	.	.	.	.	.	32g	.	.
.	.	.	.	.	.	32b-	.	.
.	.	.	.	.	.	32ee-JJJ	.	.
!	!	!	!	!LO:TX:a:i:t=poco rit.	!	!	!	!
!	!	!LO:TX:a:i:t=poco rit.	!	!LO:TX:a:t=pizz.	!	!LO:TX:a:i:t=poco rit.	!	!
.	.	4.E-]	.	32cLLL	.	8r	.	#viio7/iv]
.	.	.	.	32e-	.	.	.	.
.	.	.	.	32g-	.	.	.	.
.	.	.	.	32b--XJJJ	.	.	.	.
.	.	.	.	32cLLL	.	4r	.	V65/VI
.	.	.	.	32e-	.	.	.	.
.	.	.	.	32g-	.	.	.	.
.	.	.	.	32b--JJJ	.	.	.	.
.	.	.	.	32c-XLLL	.	.	.	.
.	.	.	.	32e-	.	.	.	.
.	.	.	.	32g-	.	.	.	.
.	.	.	.	32b--JJJ	.	.	.	.
=72	=72	=72	=72	=72	=72	=72	=72	=72
!	!	!	!	!	!	!LO:TX:a:i:t=a tempo.	!	!
!LO:TX:a:i:t=a tempo.	!	!LO:TX:a:i:t=a tempo.	!	!LO:TX:a:i:t=a tempo.	!	!LO:TX:a:t=arco	!	!
(4.A-	pp	2F-	.	32c-LLL	.	8.cc-	.	VI.I[I
.	.	.	.	32e-	.	.	.	.
.	.	.	.	32f-	.	.	.	.
.	.	.	.	32a-JJJ	.	.	.	.
.	.	.	.	32c-LLL	.	.	.	.
.	.	.	.	32f-	.	.	.	.
.	.	.	.	.	.	16qqff-/LL	.	.
.	.	.	.	.	.	16qqaa-/JJ	.	.
.	.	.	.	32a-	.	32.gg-'LLL	.	.
.	.	.	.	32cc-JJJ	.	.	.	.
.	.	.	.	.	.	64ff-'JJJk	.	.
.	.	.	.	32c-LLL	.	16ff-	.	.
.	.	.	.	32f-	.	.	.	.
.	.	.	.	.	.	16qqff-/LL	.	.
.	.	.	.	.	.	16qqaa-/JJ	.	.
.	.	.	.	32a-	.	32.gg-'LLL	.	.
.	.	.	.	32cc-JJJ	.	.	.	.
.	.	.	.	.	.	64ff-'JJJk	.	.
8B--X)	.	.	.	32d-LLL	.	16ff-	.	IV
.	.	.	.	32f-	.	.	.	.
.	.	.	.	.	.	16qqff-/LL	.	.
.	.	.	.	.	.	16qqaa-/JJ	.	.
.	.	.	.	32b--X	.	32.gg-'LLL	.	.
.	.	.	.	32dd-JJJ	.	.	.	.
.	.	.	.	.	.	64ff-'JJJk	.	.
=73	=73	=73	=73	=73	=73	=73	=73	=73
!	!	!	!	!	!	!LO:TX:a:i:t=molto cantabile.	!	!
(2F-	.	(48A-LLL	.	8cc-	.	[4ff-	.	I]
.	.	48c-	.	.	.	.	.	.
.	.	48A-	.	.	.	.	.	.
.	.	48c-	.	.	.	.	.	.
.	.	48A-	.	.	.	.	.	.
.	.	48c-JJJ	.	.	.	.	.	.
.	.	48A-LLL	.	8r	.	.	.	.
.	.	48c-	.	.	.	.	.	.
.	.	48A-	.	.	.	.	.	.
.	.	48c-	.	.	.	.	.	.
.	.	48A-	.	.	.	.	.	.
.	.	48c-JJJ)	.	.	.	.	.	.
.	.	(48A-LLL	.	4r	.	(16ff-LL]	.	.
.	.	48c-	.	.	.	.	.	.
.	.	48A-	.	.	.	.	.	.
.	.	48c-	.	.	.	16aa-	.	.
.	.	48A-	.	.	.	.	.	.
.	.	48c-JJJ	.	.	.	.	.	.
.	.	48A-LLL	.	.	.	16ff-	.	.
.	.	48c-	.	.	.	.	.	.
.	.	48A-	.	.	.	.	.	.
.	.	48c-	.	.	.	16aa-JJ)	.	.
.	.	48A-	.	.	.	.	.	.
.	.	48c-JJJ)	.	.	.	.	.	.
=74	=74	=74	=74	=74	=74	=74	=74	=74
4E-	.	(48G-LLL	.	8c- 8b--X	.	([4ccc-	.	V65
.	.	48c-	.	.	.	.	.	.
.	.	48G-	.	.	.	.	.	.
.	.	48c-	.	.	.	.	.	.
.	.	48G-	.	.	.	.	.	.
.	.	48c-JJJ	.	.	.	.	.	.
.	.	48G-LLL	.	8r	.	.	.	.
.	.	48c-	.	.	.	.	.	.
.	.	48G-	.	.	.	.	.	.
.	.	48c-	.	.	.	.	.	.
.	.	48G-	.	.	.	.	.	.
.	.	48c-JJJ)	.	.	.	.	.	.
4C-	.	(48E-LLL	.	8e-	.	16ccc-LL]	.	V7
.	.	48G-	.	.	.	.	.	.
.	.	48E-	.	.	.	.	.	.
.	.	48G-	.	.	.	16bb--X	.	.
.	.	48E-	.	.	.	.	.	.
.	.	48G-JJJ	.	.	.	.	.	.
.	.	48E-LLL	.	8r	.	16gg-	.	.
.	.	48A-	.	.	.	.	.	.
.	.	48E-	.	.	.	.	.	.
.	.	48A-	.	.	.	16aa-JJ)	.	.
.	.	48E-	.	.	.	.	.	.
.	.	48A-JJJ)	.	.	.	.	.	.
=75	=75	=75	=75	=75	=75	=75	=75	=75
4D-	.	(48A-LLL	.	8f- 8a-	.	[4ff-	.	vi
.	.	48F-	.	.	.	.	.	.
.	.	48A-	.	.	.	.	.	.
.	.	48F-	.	.	.	.	.	.
.	.	48A-	.	.	.	.	.	.
.	.	48F-	.	.	.	.	.	.
.	.	48A-	.	8r	.	.	.	.
.	.	48F-	.	.	.	.	.	.
.	.	48A-	.	.	.	.	.	.
.	.	48F-	.	.	.	.	.	.
.	.	48A-	.	.	.	.	.	.
.	.	48F-JJJ)	.	.	.	.	.	.
4BB--X	.	(48G-LLL	.	8f- 8g-	.	16ff-LL]	.	ii65
.	.	48F-	.	.	.	.	.	.
.	.	48G-	.	.	.	.	.	.
.	.	48F-	.	.	.	(16dd-	.	.
.	.	48G-	.	.	.	.	.	.
.	.	48F-	.	.	.	.	.	.
.	.	48G-	.	8r	.	16.ee-	.	.
.	.	48F-	.	.	.	.	.	.
.	.	48G-	.	.	.	.	.	.
.	.	48F-	.	.	.	.	.	.
.	.	48G-	.	.	.	.	.	.
.	.	.	.	.	.	32ff-JJk)	.	.
.	.	48F-JJJ)	.	.	.	.	.	.
=76	=76	=76	=76	=76	=76	=76	=76	=76
2C-)	.	(48A-LLL	.	8f- 8a-	.	16ff-KL	.	V(64)
.	.	48F-	.	.	.	.	.	.
.	.	48A-	.	.	.	.	.	.
.	.	48F-	.	.	.	8cc-J	.	.
.	.	48A-	.	.	.	.	.	.
.	.	48F-	.	.	.	.	.	.
.	.	48A-	.	8r	.	.	.	.
.	.	48F-	.	.	.	.	.	.
.	.	48A-	.	.	.	.	.	.
.	.	.	.	.	.	16qqcc-/LL	.	.
.	.	.	.	.	.	16qqee-/JJ	.	.
.	.	48F-	.	.	.	32.dd-'LLL	.	.
.	.	48A-	.	.	.	.	.	.
.	.	48F-JJJ)	.	.	.	.	.	.
.	.	.	.	.	.	64cc-'JJJk	.	.
.	.	(48E-LLL	.	8r	.	16cc-	.	V7
.	.	48B--X	.	.	.	.	.	.
.	.	48E-	.	.	.	.	.	.
.	.	.	.	.	.	16qqcc-/LL	.	.
.	.	.	.	.	.	16qqee-/JJ	.	.
.	.	48B--	.	.	.	32.dd-'LLL	.	.
.	.	48E-	.	.	.	.	.	.
.	.	48B--	.	.	.	.	.	.
.	.	.	.	.	.	64cc-'JJJk	.	.
!	!	!	!	!LO:TX:a:t=arco	!	!	!	!
.	.	48E-	.	(8gg-	.	16cc-	.	.
.	.	48B--	.	.	.	.	.	.
.	.	48E-	.	.	.	.	.	.
.	.	.	.	.	.	16qqcc-/LL	.	.
.	.	.	.	.	.	16qqee-/JJ	.	.
.	.	48B--	.	.	.	32.dd-'LLL	.	.
.	.	48E-	.	.	.	.	.	.
.	.	48B--JJJ)	.	.	.	.	.	.
.	.	.	.	.	.	64cc-'JJJk	.	.
=77	=77	=77	=77	=77	=77	=77	=77	=77
[4F-	.	16A-	.	(48ff-LLL)	.	(8cc-	.	I\\
.	.	.	.	48cc-	.	.	.	.
.	.	.	.	48ff-	.	.	.	.
.	.	(16a-LL	.	48cc-	.	.	.	.
.	.	.	.	48ff-	.	.	.	.
.	.	.	.	48cc-	.	.	.	.
.	.	16f-	.	48ff-	.	4aa-)	.	.
.	.	.	.	48cc-	.	.	.	.
.	.	.	.	48ff-	.	.	.	.
.	.	16a-JJ)	.	48cc-	.	.	.	.
.	.	.	.	48ff-	.	.	.	.
.	.	.	.	48cc-JJJ)	.	.	.	.
(16F-LL]	.	[4cc-	.	(48ff-LLL	.	.	.	.
.	.	.	.	48cc-	.	.	.	.
.	.	.	.	48ff-	.	.	.	.
16A-	.	.	.	48cc-	.	.	.	.
.	.	.	.	48ff-	.	.	.	.
.	.	.	.	48cc-	.	.	.	.
16F-	.	.	.	48ff-	.	(32aa-LLL	.	.
.	.	.	.	48cc-	.	.	.	.
.	.	.	.	.	.	16qqbb--X/LL	.	.
.	.	.	.	.	.	16qqaa-/	.	.
.	.	.	.	.	.	16qqgg-/JJ	.	.
.	.	.	.	.	.	32aa-	.	.
.	.	.	.	48ff-	.	.	.	.
16A-JJ)	.	.	.	48cc-	.	32ccc-	.	.
.	.	.	.	48ff-	.	.	.	.
.	.	.	.	.	.	32bb--XJJJ)	.	.
.	.	.	.	48cc-JJJ)	.	.	.	.
=78	=78	=78	=78	=78	=78	=78	=78	=78
(4c-	.	16cc-LL]	.	(48ee-LLL	.	(8aa-L	.	V(6)
.	.	.	.	48cc-	.	.	.	.
.	.	.	.	48ee-	.	.	.	.
.	.	(16e-	.	48cc-	.	.	.	.
.	.	.	.	48ee-	.	.	.	.
.	.	.	.	48cc-JJJ	.	.	.	.
.	.	16c-	.	48ee-LLL	.	[8gg-J)	.	V
.	.	.	.	48cc-	.	.	.	.
.	.	.	.	48ee-	.	.	.	.
.	.	16e-JJ)	.	48cc-	.	.	.	.
.	.	.	.	48ee-	.	.	.	.
.	.	.	.	48cc-JJJ)	.	.	.	.
16G-LL	.	(4g-	.	(48dd-LLL	.	(8gg-L]	.	ii
.	.	.	.	48cc-	.	.	.	.
.	.	.	.	48dd-	.	.	.	.
16B--X	.	.	.	48b--X	.	.	.	.
.	.	.	.	48dd-	.	.	.	.
.	.	.	.	48b--JJJ)	.	.	.	.
16G-	.	.	.	(48gg-LLL	.	32bb--XLL	.	.
.	.	.	.	48dd-	.	.	.	.
.	.	.	.	.	.	16qqccc-/LL	.	.
.	.	.	.	.	.	16qqbb--/	.	.
.	.	.	.	.	.	16qqaa-/JJ	.	.
.	.	.	.	.	.	32bb--	.	.
.	.	.	.	48gg-	.	.	.	.
16B--JJ)	.	.	.	48dd-	.	32ddd-	.	.
.	.	.	.	48gg-	.	.	.	.
.	.	.	.	.	.	32ccc-JJJ)	.	.
.	.	.	.	48dd-JJJ)	.	.	.	.
=79	=79	=79	=79	=79	=79	=79	=79	=79
(4d-	.	(16d-LL)	.	(48ff-LLL	.	(8bb--XL	.	vi(6)
.	.	.	.	48dd-	.	.	.	.
.	.	.	.	48ff-	.	.	.	.
.	.	16f-	.	48dd-	.	.	.	.
.	.	.	.	48ff-	.	.	.	.
.	.	.	.	48dd-JJJ	.	.	.	.
.	.	16d-	.	48ff-LLL	.	[8aa-J)	.	vi
.	.	.	.	48dd-	.	.	.	.
.	.	.	.	48ff-	.	.	.	.
.	.	16f-JJ	.	48dd-	.	.	.	.
.	.	.	.	48ff-	.	.	.	.
.	.	.	.	48dd-JJJ)	.	.	.	.
16A-LL	.	16a-LL	.	(48ee-LLL	.	(8aa-L]	.	iii
.	.	.	.	48cc-	.	.	.	.
.	.	.	.	48ee-	.	.	.	.
16C-	.	16c-	.	48cc-	.	.	.	.
.	.	.	.	48ee-	.	.	.	.
.	.	.	.	48cc-JJJ)	.	.	.	.
16AA-	.	16A-	.	(48aa-LLL	.	32ccc-LL	.	.
.	.	.	.	48ee-	.	.	.	.
.	.	.	.	.	.	16qqddd-/LL	.	.
.	.	.	.	.	.	16qqccc-/	.	.
.	.	.	.	.	.	16qqbb-/JJ	.	.
.	.	.	.	.	.	32ccc-	.	.
.	.	.	.	48aa-	.	.	.	.
16C-JJ)	.	16c-JJ)	.	48ee-	.	32eee-	.	.
.	.	.	.	48aa-	.	.	.	.
.	.	.	.	.	.	32ddd-JJJ)	.	.
.	.	.	.	48ee-JJJ)	.	.	.	.
=80	=80	=80	=80	=80	=80	=80	=80	=80
!	!	!LO:TX:b:i:t=cresc.	!	!	!	!	!	!
!LO:TX:b:i:t=cresc.	!	!LO:TX:a:i:t=cresc.	!	!	!	!LO:TX:a:i:t=cresc.	!	!
(4E-	.	(4e-	.	(48aa-LLL	.	(8ccc-L	.	i.V(64)
.	.	.	.	48ee-	.	.	.	.
.	.	.	.	48aa-	.	.	.	.
.	.	.	.	48ee-	.	.	.	.
.	.	.	.	48aa-	.	.	.	.
.	.	.	.	48ee-JJJ)	.	.	.	.
.	.	.	.	(48ggLLL	.	8bb-J	.	V
.	.	.	.	48ee-	.	.	.	.
.	.	.	.	48gg	.	.	.	.
.	.	.	.	48ee-	.	.	.	.
.	.	.	.	48gg	.	.	.	.
.	.	.	.	48ee-JJJ)	.	.	.	.
8C-L	.	8c-L	.	(48aa-LLL	.	8ccc-L	.	i6
.	.	.	.	48ee-	.	.	.	.
.	.	.	.	48aa-	.	.	.	.
.	.	.	.	48ee-	.	.	.	.
.	.	.	.	48aa-	.	.	.	.
.	.	.	.	48ee-JJJ)	.	.	.	.
8AA-J)	.	8A-J)	.	(48cc-LLL	.	8dddJ)	.	#viio43/V
.	.	.	.	48a-	.	.	.	.
.	.	.	.	48cc-	.	.	.	.
.	.	.	.	48a-	.	.	.	.
.	.	.	.	48cc-	.	.	.	.
.	.	.	.	48a-JJJ)	.	.	.	.
=81	=81	=81	=81	=81	=81	=81	=81	=81
!LO:TX:b:i:t=cresc.	!LO:DY:a	!LO:TX:b:i:t=cresc.	!	!LO:TX:b:i:t=cresc.	!	!LO:TX:b:i:t=cresc.	!	!
(8.EE-L	p p	(8.E-L	.	(48gLLL	p	(8.eee-L	p	V
.	.	.	.	48b-	.	.	.	.
.	.	.	.	48g	.	.	.	.
.	.	.	.	48b-	.	.	.	.
.	.	.	.	48g	.	.	.	.
.	.	.	.	48b-JJJ	.	.	.	.
.	.	.	.	48gLLL	.	.	.	.
.	.	.	.	48b-	.	.	.	.
.	.	.	.	48g	.	.	.	.
16AA-Jk	.	16A-Jk	.	48cc-	.	16dddJk	.	#viio43/V
.	.	.	.	48a-	.	.	.	.
.	.	.	.	48cc-JJJ)	.	.	.	.
8EE-L	.	8E-L	.	(48gLLL	.	8eee-L	.	V
.	.	.	.	48b-	.	.	.	.
.	.	.	.	48g	.	.	.	.
.	.	.	.	48b-	.	.	.	.
.	.	.	.	48g	.	.	.	.
.	.	.	.	48b-JJJ)	.	.	.	.
8BB-J)	sfp	8B-J)	sfp	(48ddLLL	sfp	8fffJ)	sfp	V7/V
.	.	.	.	48a-	.	.	.	.
.	.	.	.	48dd	.	.	.	.
.	.	.	.	48a-	.	.	.	.
.	.	.	.	48dd	.	.	.	.
.	.	.	.	48a-JJJ)	.	.	.	.
=82	=82	=82	=82	=82	=82	=82	=82	=82
!	!	!LO:TX:b:i:t=cresc.	!	!	!	!	!	!
!LO:TX:b:i:t=cresc.	!	!LO:TX:a:i:t=cresc.	!	!	!	!LO:TX:b:i:t=cresc.	!	!
(8.EE-L	.	(8.E-L	.	(48gLLL	.	(8.eee-L	.	V
.	.	.	.	48b-	.	.	.	.
.	.	.	.	48g	.	.	.	.
.	.	.	.	48b-	.	.	.	.
.	.	.	.	48g	.	.	.	.
.	.	.	.	48b-JJJ	.	.	.	.
.	.	.	.	48gLLL	.	.	.	.
.	.	.	.	48b-	.	.	.	.
.	.	.	.	48g	.	.	.	.
16AA-Jk	.	16A-Jk	.	48cc-	.	16dddJk	.	#viio43/V
.	.	.	.	48a-	.	.	.	.
.	.	.	.	48cc-JJJ)	.	.	.	.
8EE-L	.	8E-L	.	(48gLLL	.	8eee-L	.	V
.	.	.	.	48b-	.	.	.	.
.	.	.	.	48g	.	.	.	.
.	.	.	.	48b-	.	.	.	.
.	.	.	.	48g	.	.	.	.
.	.	.	.	48b-JJJ)	.	.	.	.
8BB-J)	sfp	8B-J)	sfp	(48ddLLL	sfp	8fffJ)	sfp	V7/V
.	.	.	.	48a-	.	.	.	.
.	.	.	.	48dd	.	.	.	.
.	.	.	.	48a-	.	.	.	.
.	.	.	.	48dd	.	.	.	.
.	.	.	.	48a-JJJ)	.	.	.	.
=83	=83	=83	=83	=83	=83	=83	=83	=83
!LO:TX:a:i:t=dim.	!	!	!	!LO:TX:b:i:t=dim.	!	!LO:TX:b:i:t=dim.	!	!
8EE-	.	16E-	.	(48gLLL	.	(48eee-LLL	.	V7
.	.	.	.	48b-	.	48bb-	.	.
.	.	.	.	48g	.	48eee-JJJ)	.	.
.	.	32qqG-/	.	.	.	.	.	.
.	.	32.F-'LLL	.	48dd-	.	16r	.	.
.	.	.	.	48b-	.	.	.	.
.	.	.	.	48dd-JJJ)	.	.	.	.
.	.	64E-'JJJk	.	.	.	.	.	.
8r	.	16E-	.	(48b-LLL	.	(48ddd-LLL	.	.
.	.	.	.	48dd-	.	48bb-	.	.
.	.	.	.	48b-	.	48ddd-JJJ)	.	.
.	.	16qqG-/	.	.	.	.	.	.
.	.	32.F-'LLL	.	48dd-	.	16r	.	.
.	.	.	.	48b-	.	.	.	.
.	.	.	.	48dd-JJJ)	.	.	.	.
.	.	64E-'JJJk	.	.	.	.	.	.
4r	.	16E-	.	(48b-LLL	.	(48bb-LLL	.	.
.	.	.	.	48dd-	.	48gg-	.	.
.	.	.	.	48b-	.	48bb-JJJ)	.	.
.	.	32qqG-/	.	.	.	.	.	.
.	.	32.F-'LLL	.	48dd-	.	16r	.	.
.	.	.	.	48b-	.	.	.	.
.	.	.	.	48dd-JJJ)	.	.	.	.
.	.	64E-'JJJk	.	.	.	.	.	.
.	.	16E-	.	(48b-LLL	.	(48gg-LLL	.	.
.	.	.	.	48dd-	.	48dd-	.	.
.	.	.	.	48b-	.	48gg-JJJ)	.	.
.	.	16qqG-/	.	.	.	.	.	.
.	.	32.F-'LLL	.	48dd-	.	16r	.	.
.	.	.	.	48b-	.	.	.	.
.	.	.	.	48dd-JJJ)	.	.	.	.
.	.	64E-'JJJk	.	.	.	.	.	.
=84	=84	=84	=84	=84	=84	=84	=84	=84
!	!LO:DY:a	!	!	!	!	!	!	!
2r	pp	32E-'LLL	.	(48b-LLL	pp	16r	.	V7(+b2)
.	.	.	.	48dd-	.	.	.	.
!	!	!LO:TX:b:i:t=sempre stacc.	!	!	!	!	!	!
.	.	32E-'	.	.	.	.	.	.
.	.	.	.	48b-JJJ)	.	.	.	.
.	.	32E-'	.	16r	.	(48ff-LLL	pp	.
.	.	.	.	.	.	48dd-	.	.
.	.	32E-'JJJ	.	.	.	.	.	.
.	.	.	.	.	.	48ff-JJJ)	.	.
.	.	32E-LLL	.	(48b-LLL	.	16r	.	.
.	.	.	.	48dd-	.	.	.	.
.	.	32E-	.	.	.	.	.	.
.	.	.	.	48b-JJJ)	.	.	.	.
.	.	32E-	.	16r	.	(48ff-LLL	.	.
.	.	.	.	.	.	48dd-	.	.
.	.	32E-JJJ	.	.	.	.	.	.
.	.	.	.	.	.	48ff-JJJ)	.	.
*	*	*tremolo	*	*	*	*	*	*
.	.	32E-LLL	.	(48b-LLL	.	16r	.	.
.	.	.	.	48dd-	.	.	.	.
.	.	32E-	.	.	.	.	.	.
.	.	.	.	48b-JJJ)	.	.	.	.
.	.	32E-	.	16r	.	(48ff-LLL	.	.
.	.	.	.	.	.	48dd-	.	.
.	.	32E-	.	.	.	.	.	.
.	.	.	.	.	.	48ff-JJJ)	.	.
.	.	32E-	.	48r	.	(48dd-LLL	.	.
.	.	.	.	(48gLLL	.	48ee-	.	.
.	.	32E-	.	.	.	.	.	.
.	.	.	.	48b-	.	48dd	.	.
.	.	32E-	.	48g	.	48ee-	.	.
.	.	.	.	48b-	.	48dd	.	.
.	.	32E-JJJ	.	.	.	.	.	.
.	.	.	.	48gJJJ)	.	48ee-JJJ)	.	.
=85	=85	=85	=85	=85	=85	=85	=85	=85
!LO:TX:a:t=pizz.	!	!	!	!	!	!LO:TX:a:i:t=sotto voce.	!	!
8AA-L	.	32E-LLL	.	(48cc-LLL	.	(8ee-L	.	i
.	.	.	.	48a-	.	.	.	.
.	.	32E-	.	.	.	.	.	.
.	.	.	.	48cc-	.	.	.	.
.	.	32E-	.	48a-	.	.	.	.
.	.	.	.	48cc-	.	.	.	.
.	.	32E-	.	.	.	.	.	.
.	.	.	.	48a-JJJ)	.	.	.	.
8C-J	.	32E-	.	(48a-LLL	.	16.gg-L	.	i6
.	.	.	.	48e-	.	.	.	.
.	.	32E-	.	.	.	.	.	.
.	.	.	.	48a-	.	.	.	.
.	.	32E-	.	48e-	.	.	.	.
.	.	.	.	48a-	.	.	.	.
.	.	32E-	.	.	.	32ff-JJk	.	.
.	.	.	.	48e-JJJ)	.	.	.	.
8BB-L	.	32E-	.	(48e-LLL	.	8a-L	.	V43(4)
.	.	.	.	48d-	.	.	.	.
.	.	32E-	.	.	.	.	.	.
.	.	.	.	48e-	.	.	.	.
.	.	32E-	.	48d-	.	.	.	.
.	.	.	.	48e-	.	.	.	.
.	.	32E-	.	.	.	.	.	.
.	.	.	.	48d-JJJ)	.	.	.	.
8D-J	.	32E-	.	(48e-LLL	.	8gJ)	.	V2
.	.	.	.	48B-	.	.	.	.
.	.	32E-	.	.	.	.	.	.
.	.	.	.	48e-	.	.	.	.
.	.	32E-	.	48B-	.	.	.	.
.	.	.	.	48e-	.	.	.	.
.	.	32E-JJJ	.	.	.	.	.	.
.	.	.	.	48B-JJJ)	.	.	.	.
=86	=86	=86	=86	=86	=86	=86	=86	=86
16C-LL	.	32E-LLL	.	(48e-LLL	.	(8a-L	.	i6
.	.	.	.	48c-	.	.	.	.
.	.	32E-	.	.	.	.	.	.
.	.	.	.	48e-	.	.	.	.
16AA-	.	32E-	.	48cc-	.	.	.	.
.	.	.	.	48e-	.	.	.	.
.	.	32E-	.	.	.	.	.	.
.	.	.	.	48cc-JJJ)	.	.	.	.
.	.	32E-	.	.	.	16qqb-/LL	.	V6
.	.	.	.	.	.	16qqa-/	.	.
.	.	.	.	.	.	16qqg/	.	.
.	.	.	.	.	.	16qqa-/JJ	.	.
16GG	.	.	.	(48b-LLL	.	16.ee-L	.	.
.	.	.	.	48e-	.	.	.	.
.	.	32E-	.	.	.	.	.	.
.	.	.	.	48b-	.	.	.	.
16EE-JJ	.	32E-	.	48e-	.	.	.	.
.	.	.	.	48b-	.	.	.	.
.	.	32E-	.	.	.	32b-JJk)	.	.
.	.	.	.	48e-JJJ)	.	.	.	.
8AA-	.	32E-	.	(48b-LLL	.	(8dd-L	.	i(9#74)
.	.	.	.	48e-	.	.	.	.
.	.	32E-	.	.	.	.	.	.
.	.	.	.	48b-	.	.	.	.
.	.	32E-	.	48g	.	.	.	.
.	.	.	.	48e-	.	.	.	.
.	.	32E-	.	.	.	.	.	.
.	.	.	.	48gJJJ)	.	.	.	.
8r	.	32E-	.	(48a-LLL	.	8cc-J	.	i\\
.	.	.	.	48e-	.	.	.	.
.	.	32E-	.	.	.	.	.	.
.	.	.	.	48a-	.	.	.	.
.	.	32E-	.	48e-	.	.	.	.
.	.	.	.	48a-	.	.	.	.
.	.	32E-JJJ	.	.	.	.	.	.
.	.	.	.	48e-JJJ)	.	.	.	.
=87	=87	=87	=87	=87	=87	=87	=87	=87
8AA-L	.	32E-LLL	.	(48cc-LLL	.	(8ee-L)	.	i
.	.	.	.	48e-	.	.	.	.
.	.	32E-	.	.	.	.	.	.
.	.	.	.	48cc-	.	.	.	.
.	.	32E-	.	48ee-	.	.	.	.
.	.	.	.	48cc-	.	.	.	.
.	.	32E-	.	.	.	.	.	.
.	.	.	.	48ee-JJJ)	.	.	.	.
16r	.	32E-	.	(48cc-LLL	.	32aa-LL	.	.
.	.	.	.	48ee-	.	.	.	.
.	.	32E-	.	.	.	32ccc-	.	.
.	.	.	.	48cc-	.	.	.	.
16C-Jk	.	32E-	.	48ee-	.	32eee-	.	i6
.	.	.	.	48cc-	.	.	.	.
.	.	32E-	.	.	.	32aaa-JJJ)	.	.
.	.	.	.	48ee-JJJ)	.	.	.	.
8BB-L	.	32E-	.	(48dd-LLL	.	(8aaa-L	.	#viio6(9)
.	.	.	.	48ee-	.	.	.	.
.	.	32E-	.	.	.	.	.	.
.	.	.	.	48dd-	.	.	.	.
.	.	32E-	.	48ee-	.	.	.	.
.	.	.	.	48dd-	.	.	.	.
.	.	32E-	.	.	.	.	.	.
.	.	.	.	48ee-JJJ)	.	.	.	.
16r	.	32E-	.	(48dd-LLL	.	16gggL	.	#viio6
.	.	.	.	48ee-	.	.	.	.
.	.	32E-	.	.	.	.	.	.
.	.	.	.	48dd-	.	.	.	.
16AA-Jk	.	32E-	.	48cc-	.	16aaa-TJJ)	.	i
.	.	.	.	48ee-	.	.	.	.
.	.	32E-JJJ	.	.	.	.	.	.
.	.	.	.	48cc-JJJ)	.	.	.	.
.	.	.	.	.	.	16qqggg/LL	.	.
.	.	.	.	.	.	16qqaaa-/JJ	.	.
=88	=88	=88	=88	=88	=88	=88	=88	=88
16GGLL	.	32E-LLL	]]	(48b-LLL	.	(16bbb-LL	.	V65
.	.	.	.	48ee-	.	.	.	.
.	.	32E-	.	.	.	.	.	.
.	.	.	.	48b-	.	.	.	.
16EE-	.	32E-	.	48g	.	16ee-)	.	.
.	.	.	.	48b-	.	.	.	.
.	.	32E-	.	.	.	.	.	.
.	.	.	.	48gJJJ)	.	.	.	.
16AA-	.	32E-	.	(48cc-LLL	.	(16ee-'	.	i
.	.	.	.	48a-	.	.	.	.
.	.	32E-	.	.	.	.	.	.
.	.	.	.	48cc-	.	.	.	.
16C-JJ	.	32E-	.	48a-	.	16dd'JJ)	.	.
.	.	.	.	48cc-	.	.	.	.
.	.	32E-	.	.	.	.	.	.
.	.	.	.	48a-JJJ)	.	.	.	.
!LO:TX:b:i:t=cresc.	!	!	!	!LO:TX:b:i:t=cresc.	!	!LO:TX:b:i:t=cresc.	!	!
8E-	.	32E-	.	(48cc-LLL	.	(8ddL	.	V(#7b64)
.	.	.	.	48a-	.	.	.	.
.	.	32E-	.	.	.	.	.	.
.	.	.	.	48cc-	.	.	.	.
.	.	32E-	.	48a-	.	.	.	.
.	.	.	.	48cc-	.	.	.	.
.	.	32E-	.	.	.	.	.	.
.	.	.	.	48a-JJJ)	.	.	.	.
8r	]]	32E-	.	(48gLLL	.	8ee-J)	]]	V
.	.	.	.	48b-	.	.	.	.
.	.	32E-	.	.	.	.	.	.
.	.	.	.	48g	.	.	.	.
.	.	32E-	.	48b-	.	.	.	.
.	.	.	.	48g	.	.	.	.
.	.	32E-JJJ	.	.	.	.	.	.
.	.	.	.	48b-JJJ)	]]	.	.	.
=89	=89	=89	=89	=89	=89	=89	=89	=89
!	!	!LO:TX:b:i:t=cresc.	!	!	!	!	!	!
8D-L	< <	32G-XLLL	] > < > < [[	(48b-LLL	< <	(8ff-L	< <	V43/III
.	.	.	.	48g-	.	.	.	.
.	.	32G-X	.	.	.	.	.	.
.	.	.	.	48b-	.	.	.	.
.	.	32G-X	.	48g-	.	.	.	.
.	.	.	.	48b-	.	.	.	.
.	.	32G-X	.	.	.	.	.	.
.	.	.	.	48g-JJJ	.	.	.	.
8F-	.	32G-X	.	48b-LLL	.	16.dd-L	.	V2/III
.	.	.	.	48g-	.	.	.	.
.	.	32G-X	.	.	.	.	.	.
.	.	.	.	48b-	.	.	.	.
.	.	32G-X	.	48g-	.	.	.	.
.	.	.	.	48b-	.	.	.	.
.	.	32G-X	.	.	.	32gg-JJk)	.	.
.	.	.	.	48g-JJJ)	[	.	.	.
8E-J	[ >	32G-X	.	(48cc-LLL	>	(8.gg-L	[ >	III6
.	.	.	.	48g-	.	.	.	.
.	.	32G-X	.	.	.	.	.	.
.	.	.	.	48cc-	.	.	.	.
.	.	32G-X	.	48g-	.	.	.	.
.	.	.	.	48cc-	.	.	.	.
.	.	32G-X	.	.	.	.	.	.
.	.	.	.	48g-JJJ	.	.	.	.
16r	.	32G-X	.	48cc-LLL	.	.	.	.
.	.	.	.	48g-	.	.	.	.
.	.	32G-X	.	.	.	.	.	.
.	.	.	.	48cc-	.	.	.	.
16C-	]]	32G-X	.	48g-	.	16ee-Jk)	]]	III
.	.	.	.	48cc-	.	.	.	.
.	.	32G-XJJJ	.	.	.	.	.	.
.	.	.	.	48g-JJJ)	]]	.	.	.
=90	=90	=90	=90	=90	=90	=90	=90	=90
!LO:TX:b:i:t=cresc.	!	!LO:TX:b:i:t=cresc.	!	!LO:TX:b:i:t=cresc.	!	!LO:TX:b:i:t=cresc.	!	!
16D-LL	.	32G-XLLL	[	(48b-LLL	.	(32gg-LLL	.	V43/III
.	.	.	.	48g-	.	.	.	.
.	.	32G-X	.	.	.	32ff-)	.	.
.	.	.	.	48b-	.	.	.	.
16GG-	.	32G-X	.	48g-	.	(32ee-'	.	.
.	.	.	.	48b-	.	.	.	.
.	.	32G-X	.	.	.	32dd-'JJJ)	.	.
.	.	.	.	48g-JJJ	.	.	.	.
16F-	.	32G-X	.	48b-LLL	.	(32cc'LLL	.	.
.	.	.	.	48g-	.	.	.	.
.	.	32G-X	.	.	.	32dd-'	.	.
.	.	.	.	48b-	.	.	.	.
16D-JJ	.	32G-X	.	48g-	.	32aa-'	.	.
.	.	.	.	48b-	.	.	.	.
.	.	32G-XJJJ	.	.	.	32gg-'JJJ)	.	.
.	.	.	.	48g-JJJ)	.	.	.	.
8E-L	.	32G-LLL	.	(48cc-LLL	.	(8.gg-L	.	III6
.	.	.	.	48g-	.	.	.	.
.	.	32G-	.	.	.	.	.	.
.	.	.	.	48cc-	.	.	.	.
.	.	32G-	.	48g-	.	.	.	.
.	.	.	.	48cc-	.	.	.	.
.	.	32G-JJJ	.	.	.	.	.	.
.	.	.	.	48g-JJJ	.	.	.	.
16r	.	32E-LLL	.	48cc-LLL	.	.	.	.
.	.	.	.	48g-	.	.	.	.
.	.	32E-	.	.	.	.	.	.
.	.	.	.	48cc-	.	.	.	.
16C-Jk	.	32E-	.	48ee-	.	16ggg-Jk)	.	III
.	.	.	.	48cc-	.	.	.	.
.	.	32E-JJJ	.	.	.	.	.	.
.	.	.	.	48ee-JJJ)	.	.	.	.
=91	=91	=91	=91	=91	=91	=91	=91	=91
!	!LO:DY:a	!	!LO:DY:a	!	!	!	!	!
8BB-L	f f	32E-LLL	f	(48dd-LLL	.	(8.ggL	f	V43
.	.	.	.	48ee-	.	.	.	.
.	.	32E-	.	.	.	.	.	.
.	.	.	.	48dd-	.	.	.	.
.	.	32E-	.	48ee-	.	.	.	.
.	.	.	.	48dd-	.	.	.	.
.	.	32E-	.	.	.	.	.	.
.	.	.	.	48ee-JJJ	.	.	.	.
16r	.	32E-	.	48dd-LLL	.	.	.	.
.	.	.	.	48ee-	.	.	.	.
.	.	32E-	.	.	.	.	.	.
.	.	.	.	48dd-	.	.	.	.
16EE-Jk	.	32E-	.	48ee-	.	16gggJk)	.	V7
.	.	.	.	48dd-	.	.	.	.
.	.	32E-JJJ	.	.	.	.	.	.
.	.	.	.	48ee-JJJ)	.	.	.	.
8C-	f >	32E-LLL	f > ]]	(48cc-LLL	f	8..aa-L 8..aaa-	f >	i6
.	.	.	.	48ee-	>	.	.	.
.	.	32E-	.	.	.	.	.	.
.	.	.	.	48cc-	.	.	.	.
.	.	32E-	.	48a-	.	.	.	.
.	.	.	.	48cc-	.	.	.	.
.	.	32E-	.	.	.	.	.	.
.	.	.	.	48a-JJJ	.	.	.	.
32r	.	32E-	.	48cc-LLL	.	.	.	.
.	.	.	.	48a-	.	.	.	.
32AA-LLL	.	32E-	.	.	.	.	.	.
.	.	.	.	48cc-	.	.	.	.
32BB-	.	32E-	.	48a-	.	.	.	.
.	.	.	.	48cc-	.	.	.	.
32C-JJJ	]]	32E-JJJ	.	.	.	32a-Jkk	]]	.
.	.	.	.	48a-JJJ)	]]	.	.	.
=92	=92	=92	=92	=92	=92	=92	=92	=92
!LO:TX:b:i:t=morendo.	!	!	!	!	!	!	!	!
!LO:TX:a:i:t=morendo.	!	!LO:TX:a:i:t=morendo.	!	!	!	!LO:TX:b:i:t=morendo.	!	!
*	*	*Xtremolo	*	*	*	*	*	*
8D-L	.	32E-LLL	.	(48b-LLL	.	(8ff-L	.	ii%65
.	.	.	.	48a-	.	.	.	.
.	.	32E-	.	.	.	.	.	.
.	.	.	.	48b-	.	.	.	.
.	.	32E-	.	48a-	.	.	.	.
.	.	.	.	48b-	.	.	.	.
.	.	32E-	.	.	.	.	.	.
.	.	.	.	48a-JJJ	.	.	.	.
8E-	.	32E-	.	48b-LLL	.	8ee-	.	V
.	.	.	.	48g	.	.	.	.
.	.	32E-	.	.	.	.	.	.
.	.	.	.	48b-	.	.	.	.
.	.	32E-	.	48g	.	.	.	.
.	.	.	.	48b-	.	.	.	.
.	.	32E-JJJ	.	.	.	.	.	.
.	.	.	.	48gJJJ)	.	.	.	.
8F-J	p	8A-	p	(8a-L	p	8a-J)	p	VI
8r	.	8r	.	[8ddd-J)	.	8r	.	iv6
=93	=93	=93	=93	=93	=93	=93	=93	=93
!LO:TX:a:t=arco	!	!	!	!	!	!	!	!
(4g-	.	(4b--X	.	(8ddd-L]	.	(4ee-	.	V43/VI
.	.	.	.	8ccc-J	.	.	.	.
!LO:TX:b:i:t=cresc.	!	!LO:TX:b:i:t=cresc.	!	!LO:TX:b:i:t=cresc.	!	!LO:TX:a:i:t=cresc.	!	!
8a-L	.	8cc-L	.	8ff-L	.	8ff-L	.	VI6
8g-J)	.	8b-J)	.	8ee-J)	.	[8ccc-J)	.	III64
=94	=94	=94	=94	=94	=94	=94	=94	=94
4f	.	4a-	.	4dd	.	8ccc-L]	.	V43/V
.	.	.	.	.	.	[8bb-J	.	.
4B-	.	4B- 4a-	.	4f 4dd	.	(32bb-LLL]	.	V/V
.	.	.	.	.	.	32ddd	.	.
.	.	.	.	.	.	32fff	.	.
.	.	.	.	.	.	32bbb-JJJ	.	.
.	.	.	.	.	.	32aaaXLLL	.	.
.	.	.	.	.	.	32bbb-	.	.
.	.	.	.	.	.	32aaa-	.	.
.	.	.	.	.	.	32fffJJJ)	.	.
=95	=95	=95	=95	=95	=95	=95	=95	=95
8E-	f	8B- 8g	f	8g 8ee-	f	8ggg	f	V
.	.	.	.	16qqfff/LL	.	16qqaaa-/LL	.	.
.	.	.	.	16qqeee-/	.	16qqggg/	.	.
.	.	.	.	16qqddd/JJ	.	16qqfff/JJ	.	.
8r	.	8r	.	(32eee-LLL	.	(32gggLLL	.	.
.	.	.	.	32ggg)	.	32bbb-)	.	.
.	.	.	.	32fff'	.	32aaa-'	.	.
.	.	.	.	32eee-'JJJ	.	32ggg'JJJ	.	.
8BB-	.	8B- 8a-	.	8ddd	.	8fff	.	V7/V
.	.	.	.	16qqeee-/LL	.	16qqggg/LL	.	.
.	.	.	.	16qqddd/	.	16qqfff/	.	.
.	.	.	.	16qqccc/JJ	.	16qqeee-/JJ	.	.
8r	.	8r	.	(32dddLLL	.	(32fffLLL	.	.
.	.	.	.	32fff)	.	32aaa-)	.	.
.	.	.	.	32eee-'	.	32ggg'	.	.
.	.	.	.	32ddd'JJJ	.	32fff'JJJ	.	.
=96	=96	=96	=96	=96	=96	=96	=96	=96
[8EE-L	.	8B-L 8g	.	8ggL	.	8eee-	.	V
.	.	16qqff/LL	.	16qqaa-/LL	.	.	.	.
.	.	16qqee-/	.	16qqgg/	.	.	.	.
.	.	16qqdd/JJ	.	16qqff/JJ	.	.	.	.
32EE-LL]	.	(32ee-LL	.	(32ggLL	.	4b- 4bb-	.	V/V
32EE-'	.	32gg)	.	32bb-)	.	.	.	.
32GG'	.	32ff'	.	32aa-'	.	.	.	.
32AA-'JJJ	.	32ee-'JJJ	.	32gg'JJJ	.	.	.	.
[8BB-L	.	8ddL	.	8ffL	.	.	.	.
.	.	16qqee-/LL	.	16qqgg/LL	.	.	.	.
.	.	16qqdd/	.	16qqff/	.	.	.	.
.	.	16qqcc/JJ	.	16qqee-/JJ	.	.	.	.
32BB-LL]	.	(32ddLL	.	(32ffLL	.	[8B- [8b-	.	.
32BB-'	.	32cc)	.	32aa-)	.	.	.	.
32C'	.	32b-'	.	32gg'	.	.	.	.
32D'JJJ	.	32a-'JJJ	.	32ff'JJJ	.	.	.	.
=97	=97	=97	=97	=97	=97	=97	=97	=97
4E-	.	8g	.	8ee-	.	32B-] 32b-]	.	V7
!	!	!	!	!	!	!LO:TX:b:i:t=dim.	!	!
.	.	.	.	.	.	(32ee-LLL	.	.
.	.	.	.	.	.	32e-	.	.
.	.	.	.	.	.	32ee-JJJ	.	.
.	.	8r	.	8rg	.	32gLLL	.	.
.	.	.	.	.	.	32ee-	.	.
.	.	.	.	.	.	32b-	.	.
.	.	.	.	.	.	32ee-JJJ	.	.
4r	.	4r	.	4r	.	32ddLLL	.	V
.	.	.	.	.	.	32ee-	.	.
.	.	.	.	.	.	32gg	.	.
.	.	.	.	.	.	32ee-JJJ	.	.
.	.	.	.	.	.	32bb-LLL	.	.
.	.	.	.	.	.	32ee-	.	.
.	.	.	.	.	.	32ddd-	.	.
.	.	.	.	.	.	32ee-JJJ)	.	.
=98	=98	=98	=98	=98	=98	=98	=98	=98
!LO:TX:b:i:t=sotto voce	!	!	!	!	!	!	!	!
(8a-L	.	2r	.	2r	.	(32ccc-LLL	p	i
.	.	.	.	.	.	32ee-	.	.
.	.	.	.	.	.	32aa-	.	.
.	.	.	.	.	.	32ee-JJJ	.	.
8cc-	.	.	.	.	.	32ggLLL	.	.
.	.	.	.	.	.	32ee-	.	.
.	.	.	.	.	.	32aa-	.	.
.	.	.	.	.	.	32ee-JJJ	.	.
8.ee-	.	.	.	.	.	32ggLLL	.	.
.	.	.	.	.	.	32ee-	.	.
.	.	.	.	.	.	32aa-	.	.
.	.	.	.	.	.	32ee-JJJ	.	.
.	.	.	.	.	.	32bb-LLL	.	.
.	.	.	.	.	.	32ee-	.	.
16a-Jk)	.	.	.	.	.	32ccc-	.	.
.	.	.	.	.	.	32ee-JJJ)	.	.
=99	=99	=99	=99	=99	=99	=99	=99	=99
(8gL	.	2r	.	2r	.	(32ddd-LLL	.	V65
.	.	.	.	.	.	32ee-	.	.
.	.	.	.	.	.	32ccc-	.	.
.	.	.	.	.	.	32ee-JJJ	.	.
8b-	.	.	.	.	.	32bb-LLL	.	.
.	.	.	.	.	.	32ee-	.	.
.	.	.	.	.	.	32aa-	.	.
.	.	.	.	.	.	32ee-JJJ	.	.
8.ee-	.	.	.	.	.	32ggLLL	.	.
.	.	.	.	.	.	32ee-	.	.
.	.	.	.	.	.	32bb-	.	.
.	.	.	.	.	.	32ee-JJJ	.	.
.	.	.	.	.	.	32ff-LLL	.	.
.	.	.	.	.	.	32ee-	.	.
16dd-Jk)	.	.	.	.	.	32gg	.	.
.	.	.	.	.	.	32ee-JJJ)	.	.
=100	=100	=100	=100	=100	=100	=100	=100	=100
(16cc-LL	.	2a-	p	32r	.	(8aa-L	.	i
.	.	.	.	(32ee-LLL	p	.	.	.
16a-	.	.	.	32cc-	.	.	.	.
.	.	.	.	32ee-JJJ)	.	.	.	.
16g	.	.	.	32r	.	8ccc-	.	.
.	.	.	.	(32ee-LLL	.	.	.	.
16a-JJ	.	.	.	32cc-	.	.	.	.
.	.	.	.	32ee-JJJ)	.	.	.	.
16gLL	.	.	.	32r	.	8.eee-	.	.
.	.	.	.	(32ee-LLL	.	.	.	.
16a-	.	.	.	32cc-	.	.	.	.
.	.	.	.	32ee-JJJ)	.	.	.	.
16b-	.	.	.	(32dd-LLL	.	.	.	.
.	.	.	.	32ee-	.	.	.	.
16cc-JJ)	.	.	.	32dd	.	16aa-Jk)	.	.
.	.	.	.	32ee-JJJ)	.	.	.	.
=101	=101	=101	=101	=101	=101	=101	=101	=101
(16dd-LL	.	[4e-	.	32r	.	(8ggL	.	V7
.	.	.	.	16ee-LL	.	.	.	.
16cc-	.	.	.	.	.	.	.	.
.	.	.	.	32ee-JJk	.	.	.	.
16b-	.	.	.	(32dd-LLL	.	8bb-	.	.
.	.	.	.	32ee-	.	.	.	.
16a-JJ	.	.	.	32cc-	.	.	.	.
.	.	.	.	32ee-JJJ	.	.	.	.
16gLL	.	8e-L_	.	32b-LLL	.	8.eee-	.	.
.	.	.	.	32ee-	.	.	.	.
16b-	.	.	.	32dd-	.	.	.	.
.	.	.	.	32ee-JJJ	.	.	.	.
16e-	.	32e-LL]	.	32gLLL	.	.	.	.
.	.	(32e-	.	32ee-	.	.	.	.
16d-JJ)	.	32b-	.	32b-	.	16gggJk)	.	.
.	.	32e-JJJ)	.	32ee-JJJ)	.	.	.	.
=102	=102	=102	=102	=102	=102	=102	=102	=102
(8c-L	.	32r	.	8ee-	.	(8aaa-L	.	i6
.	.	(32a-LLL	.	.	.	.	.	.
.	.	32cc-	.	.	.	.	.	.
.	.	32a-JJJ	.	.	.	.	.	.
8A-	.	32ee-LLL	.	8r	.	8cccc-	.	i
.	.	32a-	.	.	.	.	.	.
.	.	32cc-	.	.	.	.	.	.
.	.	32a-JJJ)	.	.	.	.	.	.
8.G-	sfp	4r	.	32r	.	8.eeee-	sfp	v6
.	.	.	.	(32ee-LLL	.	.	.	.
.	.	.	.	32gg-X	.	.	.	.
.	.	.	.	32ee-JJJ	.	.	.	.
.	.	.	.	32bb-LLL	.	.	.	.
.	.	.	.	32ee-	.	.	.	.
16B-Jk)	.	.	.	32gg-	.	16ggg-Jk)	.	.
.	.	.	.	32ee-JJJ)	.	.	.	.
=103	=103	=103	=103	=103	=103	=103	=103	=103
(8d-L	.	32r	.	4r	.	(8fff-L	.	iv6
.	.	(32f-LLL	.	.	.	.	.	.
.	.	32a-	.	.	.	.	.	.
.	.	32f-JJJ	.	.	.	.	.	.
8F-	.	32dd-LLL	.	.	.	8aaa-	.	.
.	.	32f-	.	.	.	.	.	.
.	.	32a-	.	.	.	.	.	.
.	.	32f-JJJ)	.	.	.	.	.	.
8.E-	sfp	4r	.	32r	.	8.cccc-	sfp	III6
.	.	.	.	(32cc-LLL	.	.	.	.
.	.	.	.	32ee-	.	.	.	.
.	.	.	.	32cc-JJJ	.	.	.	.
.	.	.	.	32gg-LLL	.	.	.	.
.	.	.	.	32cc-	.	.	.	.
16G-Jk)	.	.	.	32ee-	.	16eee-Jk)	.	.
.	.	.	.	32cc-JJJ)	.	.	.	.
=104	=104	=104	=104	=104	=104	=104	=104	=104
(8B--XL	.	32r	.	4r	.	(8ddd-L	.	.bII
.	.	(32d-LLL	.	.	.	.	.	.
.	.	32f-	.	.	.	.	.	.
.	.	32d-JJJ	.	.	.	.	.	.
8D-	.	32b--XLLL	.	.	.	8fff-	.	.bII6
.	.	32d-	.	.	.	.	.	.
.	.	32f-	.	.	.	.	.	.
.	.	32d-JJJ)	.	.	.	.	.	.
8.C-	sfp	32r	.	32r	.	8.aaa-	sfp	i6
.	.	(32A-LLL	.	(32a-LLL	.	.	.	.
.	.	32c-	.	32cc-	.	.	.	.
.	.	32A-JJJ	.	32a-JJJ	.	.	.	.
.	.	32e-LLL	.	32ee-LLL	.	.	.	.
.	.	32c-	.	32cc-	.	.	.	.
16A-Jk)	.	32a-	.	32aa-	.	16ccc-Jk)	.	i
.	.	32e-JJJ)	.	32ee-JJJ	.	.	.	.
=105	=105	=105	=105	=105	=105	=105	=105	=105
[8BB-	.	8d	.	8ff)	.	8aaa-	.	V7/V
32BB-LLL]	.	4.d 4.f	.	8r	.	4.B- 4.a-	.	.
32D	.	.	.	.	.	.	.	.
32F	.	.	.	.	.	.	.	.
32A-JJJ	.	.	.	.	.	.	.	.
32B-LLL	.	.	.	8r	.	.	.	.
32d	.	.	.	.	.	.	.	.
32f	.	.	.	.	.	.	.	.
32a-JJJ	.	.	.	.	.	.	.	.
(16aXLL	.	.	.	(16.ddLL	.	.	.	.
16b-JJ)	.	.	.	.	.	.	.	.
.	.	.	.	32aa-JJk)	.	.	.	.
=106	=106	=106	=106	=106	=106	=106	=106	=106
.	.	.	.	16qqgg/LL	.	.	.	.
.	.	.	.	16qqaa-/	.	.	.	.
.	.	.	.	16qqbb-/JJ	.	.	.	.
[8EE-	.	8r	.	(8aa-L	.	8ddd-	.	V7(4)
32EE-LLL]	.	(4d-X	.	8ggJ)	.	4B- 4g	.	V7
32GG	.	.	.	.	.	.	.	.
32BB-	.	.	.	.	.	.	.	.
32DJJJ	.	.	.	.	.	.	.	.
32E-LLL	.	.	.	4r	.	.	.	.
32G	.	.	.	.	.	.	.	.
32B-	.	.	.	.	.	.	.	.
32d-JJJ	.	.	.	.	.	.	.	.
(16dLL	.	8b-)	.	.	.	(16.ggLL	.	.
16e-JJ)	.	.	.	.	.	.	.	.
.	.	.	.	.	.	32ddd-JJk)	.	.
=107	=107	=107	=107	=107	=107	=107	=107	=107
32r	.	(16ee-LL	.	(16g-LL	.	(16ddd-LL	.	V7
(32AA-LLL	.	.	.	.	.	.	.	.
32A-)	.	32ggJJk)	.	32ee-JJk)	.	32cccJJk)	.	V7/iv
32A-'JJJ	.	32r	.	32r	.	32r	.	.
32r	.	(16dd-LL	.	(16fLL	.	(16ddd-LL	.	V7/VII
(32D-LLL	.	.	.	.	.	.	.	.
32d-)	.	32ffJJk)	.	32dd-JJk)	.	32ccc-XJJk)	.	.
32d-'JJJ	.	32r	.	32r	.	32r	.	.
32r	.	(16f-LL	.	(16dd-LL	.	(16ccc-LL	.	.
(32GLLL	.	.	.	.	.	.	.	.
32g)	.	32dd-JJk)	.	32ff-JJk)	.	32bb-JJk)	.	#viio7
32g'JJJ	.	32r	.	32r	.	32r	.	.
32r	.	(16e-LL	.	(16cc-LL	.	(16bb-LL	.	.
(32A-LLL	.	.	.	.	.	.	.	.
32a-)	.	32cc-JJk)	.	32ee-JJk)	.	32aa-JJk)	.	i
32a-'JJJ	.	32r	.	32r	.	32r	.	.
=108	=108	=108	=108	=108	=108	=108	=108	=108
(32a-LLL	.	(32cc-LLL	.	(32ee-LLL	.	(32aa-LLL	.	i6
32b-JJJ)	.	32dd-JJJ)	.	32ee-JJJ)	.	32ggJJJ)	.	V2
32r	.	32r	.	32r	.	32r	.	.
32b-	.	32dd-	.	32ff-	.	32gg	.	.
(32b-LLL	.	(32dd-LLL	.	(32ff-LLL	.	(32ggLLL	.	.
32cc-JJJ)	.	32cc-JJJ)	.	32ee-JJJ)	.	32aa-JJJ)	.	i6
32r	.	32r	.	32r	.	32r	.	.
!LO:TX:b:i:t=cresc.	!	!LO:TX:b:i:t=cresc.	!	!LO:TX:b:i:t=cresc.	!	!LO:TX:b:i:t=cresc.	!	!
32g	.	32dd-	.	32ee-	.	32bb-	.	V2
(32gLLL	.	(32dd-LLL	.	(32ee-LLL	.	(32bb-LLL	.	.
32a-)	.	32cc-)	.	32aa-)	.	32ccc-)	.	i6
(32a-	.	(32cc-	.	(32aa-	.	(32ccc-	.	.
32g-XJJJ)	.	32ee--XJJJ)	.	32bb--XJJJ)	.	32cccJJJ)	.	.Ger6/iv
(32g-LLL	.	(32ee--LLL	.	(32bb--LLL	.	(32cccLLL	.	.
32f-JJJ)	.	32a-)	.	32aa-)	.	32ddd-)	.	V(64)/iv
16r	.	(32ff-	.	(32aa-	.	(32ddd-	.	.
.	.	32ccJJJ)	.	32gg-JJJ)	.	32eee-JJJ)	.	V7/iv
=109	=109	=109	=109	=109	=109	=109	=109	=109
8r	.	(32ccLLL	.	(32gg-LLL	.	(32eee-LLL	.	.
.	.	32dd-)	.	32ff-)	.	32fff-)	.	iv
.	.	(32dd-	.	(32ff-	.	(32fff-	.	.
.	.	32b-JJJ)	.	32dd-JJJ)	.	32gggJJJ)	.	#viio6
16r	.	(32b-LLL	.	(32dd-LLL	.	(32gggLLL	.	.
.	.	32cc-X)	.	32ee-)	.	32aaa-)	.	i6
(32c-LLL	.	(32cc-	.	(32ee-	.	(32aaa-	.	.
32GJJJ)	.	32e-JJJ)	.	32dd-JJJ)	.	32bbb-JJJ)	.	V65
(32GLLL	.	(32e-LLL	.	(32dd-LLL	.	(32bbb-LLL	.	.
32A-)	.	32e-)	.	32cc-)	.	32cccc-)	.	i
(32A-	.	(32e-	.	(32cc-	.	(32cccc-	.	.
32FJJJ)	.	32a-JJJ)	.	32cc-JJJ)	.	32dddJJJ)	.	#viio6/V
(32FLLL	.	(32a-LLL	.	(32cc-LLL	.	(32dddLLL	.	.
32E-)	.	32cc-)	.	32aa-)	.	32eee-)	.	V(64)
(32E-	.	(32cc-	.	(32aa-	.	(32eee-	.	.
32D-JJJ)	.	32a-JJJ)	.	32ccc-JJJ)	.	32fffJJJ)	.	.
=110	=110	=110	=110	=110	=110	=110	=110	=110
8D'	sf	8a-'	sf	8ccc-'	sf	8fff'	sf	#viio7/V
8r	.	8r	.	8r	.	8r	.	.
8F-'	f	8A-'	f	8c-' 8a-	f	8d'	f	#viio65/V
8r	.	8r	.	8r	.	8r	.	.
=111	=111	=111	=111	=111	=111	=111	=111	=111
!	!	!	!LO:DY:a	!	!LO:DY:a	!	!	!
16E-	p	16A-	p p	16c- 16a-	p	8.e-	.	V(64)
16r	.	16r	.	16r	.	.	.	.
8r	.	(8a-L	.	(8cc-L	.	.	.	.
.	.	.	.	.	.	16qqeee-/LL	.	.
.	.	.	.	.	.	16qqggg-/JJ	.	.
.	.	.	.	.	.	32.fff-'LLL	.	.
.	.	.	.	.	.	64eee-'JJJk	.	.
4r	.	8b-	.	8dd-	.	16eee-	.	.
.	.	.	.	.	.	16qqeee-/LL	.	.
.	.	.	.	.	.	16qqggg-/JJ	.	.
.	.	.	.	.	.	32.fff-'LLL	.	.
.	.	.	.	.	.	64eee-'JJJk	.	.
.	.	8cc-J)	.	8ee-J)	.	16eee-	.	.
.	.	.	.	.	.	16qqeee-/LL	.	.
.	.	.	.	.	.	16qqggg-/JJ	.	.
.	.	.	.	.	.	32.fff-'LLL	.	.
.	.	.	.	.	.	64eee-'JJJk	.	.
=112	=112	=112	=112	=112	=112	=112	=112	=112
8r	.	(8dd-L	.	(8ff-L	.	16eee-KL	.	V7
.	.	.	.	.	.	16r	.	.
16r	.	8ff-J	.	8bb-J	.	(8ddd-J	.	.
16qqEE-/LL	.	.	.	.	.	.	.	.
16qqGG-/JJ	.	.	.	.	.	.	.	.
32.FF-'LLL	.	.	.	.	.	.	.	.
64EE-'JJJk	.	.	.	.	.	.	.	.
16EE-	.	8ee-L	.	8aa-L	.	8ccc-L	.	V(64)
16qqEE-/LL	.	.	.	.	.	.	.	.
16qqGG-/JJ	.	.	.	.	.	.	.	.
32.FF-'LLL	.	.	.	.	.	.	.	.
64EE-'JJJk	.	.	.	.	.	.	.	.
16EE-	.	8dd-J	.	8ggJ	.	8bb-J	.	V
16qqEE-/LL	.	.	.	.	.	.	.	.
16qqGG-/JJ	.	.	.	.	.	.	.	.
32.FF-'LLL	.	.	.	.	.	.	.	.
64EE-'JJJk	.	.	.	.	.	.	.	.
=113	=113	=113	=113	=113	=113	=113	=113	=113
16AA-	.	16cc-)	.	16aa-)	.	16aa-)	.	i\\
16r	.	16r	.	16r	.	32r	.	.
.	.	.	.	.	.	32eee-	.	.
8r	.	(8A-L	.	(8c-L	.	32r	.	.
.	.	.	.	.	.	(64eee-LLLL	.	.
.	.	.	.	.	.	64ggg-J)	.	.
.	.	.	.	.	.	32fff-'	.	.
.	.	.	.	.	.	32eee-'JJJ	.	.
4r	.	8B-	.	8d-	.	32r	.	V43
.	.	.	.	.	.	(64eee-LLLL	.	.
.	.	.	.	.	.	64ggg-J)	.	.
.	.	.	.	.	.	32fff-'	.	.
.	.	.	.	.	.	32eee-'JJJ	.	.
.	.	8c-J)	.	8e-J)	.	32r	.	i6
.	.	.	.	.	.	(64eee-LLLL	.	.
.	.	.	.	.	.	64ggg-J)	.	.
.	.	.	.	.	.	32fff-'	.	.
.	.	.	.	.	.	32eee-'JJJ	.	.
=114	=114	=114	=114	=114	=114	=114	=114	=114
16.r	.	(8d-L	.	(8f-L	.	16eee-	.	V7(+b2)
.	.	.	.	.	.	16r	.	.
32EE-	.	.	.	.	.	.	.	.
32r	.	8f-	.	8dd-	.	(8b-L	.	.
(64EE-LLLL	.	.	.	.	.	.	.	.
64GG-J)	.	.	.	.	.	.	.	.
32FF-'	.	.	.	.	.	.	.	.
32EE-'JJJ	.	.	.	.	.	.	.	.
32r	.	8e-	.	8cc-J)	.	8a-	.	.
(64EE-LLLL	.	.	.	.	.	.	.	.
64GG-J)	.	.	.	.	.	.	.	.
32FF-'	.	.	.	.	.	.	.	.
32EE-'JJJ	.	.	.	.	.	.	.	.
32r	.	8d-J)	.	(16.b-LL	.	8e-J)	.	.
(64EE-LLLL	.	.	.	.	.	.	.	.
64GGJ)	.	.	.	.	.	.	.	.
32FF'	.	.	.	.	.	.	.	.
32EE-'JJJ	.	.	.	32ee-JJk)	.	.	.	.
=115	=115	=115	=115	=115	=115	=115	=115	=115
32AA-'LLL	.	(48c-LLL	.	(8ee-L	.	[8e-	.	i\\
.	.	48E-	.	.	.	.	.	.
!LO:TX:b:i:t=sempre stacc.	!	!	!	!	!	!	!	!
32AA-'	.	.	.	.	.	.	.	.
.	.	48c-	.	.	.	.	.	.
32AA-'	.	48E-	.	.	.	.	.	.
.	.	48c-	.	.	.	.	.	.
32AA-'JJJ	.	.	.	.	.	.	.	.
.	.	48E-JJJ	.	.	.	.	.	.
32EE-LLL	.	48c-LLL	.	16.gg-L	.	8e-]	.	III6
.	.	48E-	.	.	.	.	.	.
32EE-	.	.	.	.	.	.	.	.
.	.	48c-	.	.	.	.	.	.
32EE-	.	48E-	.	.	.	.	.	.
.	.	48c-	.	.	.	.	.	.
32EE-JJJ	.	.	.	32ff-JJk	.	.	.	.
.	.	48E-JJJ)	.	.	.	.	.	.
32BB-LLL	.	(48d-LLL	.	8a-L	.	(8ddd-L	.	V43(4)
.	.	48E-	.	.	.	.	.	.
32BB-	.	.	.	.	.	.	.	.
.	.	48d-	.	.	.	.	.	.
32BB-	.	48E-	.	.	.	.	.	.
.	.	48d-	.	.	.	.	.	.
32BB-JJJ	.	.	.	.	.	.	.	.
.	.	48E-JJJ	.	.	.	.	.	.
32EE-LLL	.	48d-LLL	.	8gJ)	.	16.fff-L	.	V7(9)
.	.	48E-	.	.	.	.	.	.
32EE-	.	.	.	.	.	.	.	.
.	.	48d-	.	.	.	.	.	.
32EE-	.	48E-	.	.	.	.	.	.
.	.	48d-	.	.	.	.	.	.
32EE-JJJ	.	.	.	.	.	32eee-JJk)	.	.
.	.	48E-JJJ)	.	.	.	.	.	.
=116	=116	=116	=116	=116	=116	=116	=116	=116
32C-LLL	.	(48e-LLL	.	(8a-L	.	[4eee-	.	V6
.	.	48E-	.	.	.	.	.	.
32C-	.	.	.	.	.	.	.	.
.	.	48e-	.	.	.	.	.	.
32C-	.	48E-	.	.	.	.	.	.
.	.	48e-	.	.	.	.	.	.
32C-JJJ	.	.	.	.	.	.	.	.
.	.	48E-JJJ	.	.	.	.	.	.
32GGLLL	.	48e-LLL	.	16.ee-L	.	.	.	.
.	.	48E-	.	.	.	.	.	.
32GG	.	.	.	.	.	.	.	.
.	.	48e-	.	.	.	.	.	.
32GG	.	48E-	.	.	.	.	.	.
.	.	48e-	.	.	.	.	.	.
32GGJJJ	.	.	.	32b-JJk	.	.	.	.
.	.	48E-JJJ)	.	.	.	.	.	.
32AA-LLL	.	(48B-LLL	.	8dd-L	.	(8eee-L]	.	i(94)
.	.	48E-	.	.	.	.	.	.
32AA-	.	.	.	.	.	.	.	.
.	.	48B-	.	.	.	.	.	.
32AA-	.	48E-	.	.	.	.	.	.
.	.	48B-	.	.	.	.	.	.
32AA-JJJ	.	.	.	.	.	.	.	.
.	.	48E-JJJ	.	.	.	.	.	.
32AA-LLL	.	48A-LLL	.	8cc-J)	.	16.aaa-L	.	i
.	.	48E-	.	.	.	.	.	.
32AA-	.	.	.	.	.	.	.	.
.	.	48A-	.	.	.	.	.	.
32AA-	.	48E-	.	.	.	.	.	.
.	.	48A-	.	.	.	.	.	.
32AA-JJJ	.	.	.	.	.	32eee-JJk)	.	.
.	.	48E-JJJ)	.	.	.	.	.	.
=117	=117	=117	=117	=117	=117	=117	=117	=117
!	!	!	!	!	!	!LO:TX:b:i:t=molto espressivo	!	!
!	!	!	!	!	!	!LO:TX:b:i:t=molto espressivo	!	!
32C-LLL	.	(48A-LLL	.	(8..ee-L	.	(8..eee-L	.	i6
.	.	48E-	.	.	.	.	.	.
32C-	.	.	.	.	.	.	.	.
.	.	48A-	.	.	.	.	.	.
32C-	.	48E-	.	.	.	.	.	.
.	.	48A-	.	.	.	.	.	.
32C-JJJ	.	.	.	.	.	.	.	.
.	.	48E-JJJ)	.	.	.	.	.	.
32AA-LLL	.	(48c-LLL	.	.	.	.	.	.
.	.	48E-	.	.	.	.	.	.
32AA-	.	.	.	.	.	.	.	.
.	.	48c-	.	.	.	.	.	.
32AA-	.	48E-	.	.	.	.	.	.
.	.	48c-	.	.	.	.	.	.
32AA-JJJ	.	.	.	32aa-Jkk)	.	32aaa-Jkk)	.	i
.	.	48E-JJJ)	.	.	.	.	.	.
32BB-LLL	.	(48d-LLL	.	(8aa-L	.	(8aaa-L	.	V43(4)
.	.	48E-	.	.	.	.	.	.
32BB-	.	.	.	.	.	.	.	.
.	.	48d-	.	.	.	.	.	.
32BB-	.	48E-	.	.	.	.	.	.
.	.	48d-	.	.	.	.	.	.
32BB-JJJ	.	.	.	.	.	.	.	.
.	.	48E-JJJ)	.	.	.	.	.	.
32BB-LLL	.	(48d-LLL	.	16ggL	.	16gggL	.	V43
.	.	48E-	.	.	.	.	.	.
32BB-	.	.	.	.	.	.	.	.
.	.	48d-	.	.	.	.	.	.
32AA-	.	48c-	.	16aa-TJJ)	.	16aaa-TJJ)	.	i
.	.	48E-	.	.	.	.	.	.
32AA-JJJ	.	.	.	.	.	.	.	.
.	.	48c-JJJ)	.	.	.	.	.	.
.	.	.	.	16qqgg/LL	.	16qqggg/LL	.	.
.	.	.	.	16qqaa-/JJ	.	16qqaaa-/JJ	.	.
=118	=118	=118	=118	=118	=118	=118	=118	=118
32GGLLL	.	(48B-LLL	.	(16bb-LL	.	(16bbb-LL	.	V65
.	.	48E-	.	.	.	.	.	.
32GG	.	.	.	.	.	.	.	.
.	.	48B-	.	.	.	.	.	.
32EE-	.	48G	.	16ee-)	.	16eee-)	.	V
.	.	48B-	.	.	.	.	.	.
32EE-JJJ	.	.	.	.	.	.	.	.
.	.	48GJJJ)	.	.	.	.	.	.
32AA-LLL	.	(48c-LLL	.	(16ee-'	.	(16eee-'	.	i
.	.	48A-	.	.	.	.	.	.
32AA-	.	.	.	.	.	.	.	.
.	.	48c-	.	.	.	.	.	.
32C-	.	48A-	.	16dd'JJ)	.	16ddd'JJ)	.	#viio2/V
.	.	48c-	.	.	.	.	.	.
32C-JJJ	.	.	.	.	.	.	.	.
.	.	48A-JJJ)	.	.	.	.	.	.
32E-LLL	.	(48c-LLL	.	(8ddL	.	(8dddL	.	V(#764)
.	.	48A-	.	.	.	.	.	.
32E-	.	.	.	.	.	.	.	.
.	.	48c-	.	.	.	.	.	.
32E-	.	48A-	.	.	.	.	.	.
.	.	48c-	.	.	.	.	.	.
32E-JJJ	.	.	.	.	.	.	.	.
.	.	48A-JJJ)	.	.	.	.	.	.
32E-LLL	.	(48GLLL	.	8ee-J)	.	8eee-J)	.	V
.	.	48B-	.	.	.	.	.	.
32E-	.	.	.	.	.	.	.	.
.	.	48G	.	.	.	.	.	.
32E-	.	48B-	.	.	.	.	.	.
.	.	48G	.	.	.	.	.	.
32E-JJJ	.	.	.	.	.	.	.	.
.	.	48B-JJJ)	.	.	.	.	.	.
=119	=119	=119	=119	=119	=119	=119	=119	=119
32D-LLL	<	(48G-LLL	<	(8ff-L	<	(8fff-L	<	V43/III
.	.	48B-	.	.	.	.	.	.
32D-	.	.	.	.	.	.	.	.
.	.	48G-	.	.	.	.	.	.
32D-	.	48B-	.	.	.	.	.	.
.	.	48G-	.	.	.	.	.	.
32D-JJJ	.	.	.	.	.	.	.	.
.	.	48B-JJJ	.	.	.	.	.	.
32F-LLL	.	48G-LLL	.	16.dd-L	.	16.ddd-L	.	V2/III
.	.	48B-	.	.	.	.	.	.
32F-	.	.	.	.	.	.	.	.
.	.	48G-	.	.	.	.	.	.
32F-	.	48B-	.	.	.	.	.	.
.	.	48G-	.	.	.	.	.	.
32F-JJJ	.	.	.	32gg-JJk)	.	32ggg-JJk)	.	.
.	.	48B-JJJ)	.	.	.	.	.	.
32E-LLL	[ >	(48G-LLL	[ >	(8.gg-L	[ >	(8.ggg-L	[ >	III6
.	.	48c-	.	.	.	.	.	.
32E-	.	.	.	.	.	.	.	.
.	.	48G-	.	.	.	.	.	.
32E-	.	48c-	.	.	.	.	.	.
.	.	48G-	.	.	.	.	.	.
32E-JJJ	.	.	.	.	.	.	.	.
.	.	48c-JJJ	.	.	.	.	.	.
32E-LLL	.	48G-LLL	.	.	.	.	.	.
.	.	48c-	.	.	.	.	.	.
32E-	.	.	.	.	.	.	.	.
.	.	48G-	.	.	.	.	.	.
32C-	.	48c-	.	16ee-Jk)	]]	16eee-Jk)	]]	III
.	.	48G-	.	.	.	.	.	.
32C-JJJ	]]	.	.	.	.	.	.	.
.	.	48c-JJJ)	]]	.	.	.	.	.
=120	=120	=120	=120	=120	=120	=120	=120	=120
!LO:TX:a:i:t=cresc.	!	!LO:TX:a:i:t=cresc.	!	!	!	!LO:TX:b:i:t=cresc.	!	!
32D-LLL	.	(48G-LLL	.	(32gg-LLL	.	(32ggg-LLL	.	V43/III
.	.	48B-	.	.	.	.	.	.
!LO:TX:b:i:t=cresc.	!	!	!	!	!	!	!	!
32D-	.	.	.	32ff-)	.	32fff-)	.	.
.	.	48G-	.	.	.	.	.	.
32D-	.	48B-	.	(32ee-'	.	(32eee-'	.	.
.	.	48G-	.	.	.	.	.	.
32D-JJJ	.	.	.	32dd-'JJJ)	.	32ddd-'JJJ)	.	.
.	.	48B-JJJ	.	.	.	.	.	.
32F-LLL	.	48G-LLL	.	(32cc'LLL	.	(32ccc'LLL	.	V2/III
.	.	48B-	.	.	.	.	.	.
32F-	.	.	.	32dd-'	.	32ddd-'	.	.
.	.	48G-	.	.	.	.	.	.
32F-	.	48B-	.	32aa-'	.	32aaa-'	.	.
.	.	48G-	.	.	.	.	.	.
32F-JJJ	.	.	.	32gg-'JJJ)	.	32ggg-'JJJ)	.	.
.	.	48B-JJJ)	.	.	.	.	.	.
32E-LLL	.	(48G-LLL	.	(4gg-	.	(4ggg-	.	III6
.	.	48c-	.	.	.	.	.	.
32E-	.	.	.	.	.	.	.	.
.	.	48G-	.	.	.	.	.	.
32E-	.	48c-	.	.	.	.	.	.
.	.	48G-	.	.	.	.	.	.
32E-JJJ	.	.	.	.	.	.	.	.
.	.	48c-JJJ	.	.	.	.	.	.
32E-LLL	.	48G-LLL	.	.	.	.	.	.
.	.	48c-	.	.	.	.	.	.
32E-	.	.	.	.	.	.	.	.
.	.	48G-	.	.	.	.	.	.
32C-	.	48e-	.	.	.	.	.	.
.	.	48c-	.	.	.	.	.	.
32C-JJJ	.	.	.	.	.	.	.	.
.	.	48e-JJJ)	.	.	.	.	.	.
=121	=121	=121	=121	=121	=121	=121	=121	=121
32BB-LLL	f	(48d-LLL	f	4ee-) 4gg	sf	[8ggg)	sf	V43
.	.	48e-	.	.	.	.	.	.
32BB-	.	.	.	.	.	.	.	.
.	.	48d-	.	.	.	.	.	.
32BB-	.	48e-	.	.	.	.	.	.
.	.	48d-	.	.	.	.	.	.
32BB-JJJ	.	.	.	.	.	.	.	.
.	.	48e-JJJ	.	.	.	.	.	.
32EE-LLL	.	48d-LLL	.	.	.	8ggg]	.	V7
.	.	48e-	.	.	.	.	.	.
32EE-	.	.	.	.	.	.	.	.
.	.	48d-	.	.	.	.	.	.
32EE-	.	48e-	.	.	.	.	.	.
.	.	48d-	.	.	.	.	.	.
32EE-JJJ	.	.	.	.	.	.	.	.
.	.	48e-JJJ)	.	.	.	.	.	.
32C-LLL	f >	(48c-LLL	f >	8..ee-L 8..aa-	f >	8..aaa-L	f >	i6
.	.	48e-	.	.	.	.	.	.
32C-	.	.	.	.	.	.	.	.
.	.	48c-	.	.	.	.	.	.
32C-	.	48e-	.	.	.	.	.	.
.	.	48c-	.	.	.	.	.	.
32C-JJJ	.	.	.	.	.	.	.	.
.	.	48e-JJJ	.	.	.	.	.	.
32CLLL	.	48A-LLL	.	.	.	.	.	.
.	.	48e-	.	.	.	.	.	.
32C	.	.	.	.	.	.	.	.
.	.	48A-	.	.	.	.	.	.
32C	.	48e-	.	.	.	.	.	.
.	.	48A-	.	.	.	.	.	.
32CJJJ	]]	.	.	32a-Jkk	]]	32aa-Jkk	]]	V6/iv
.	.	48e-JJJ)	]]	.	.	.	.	.
=122	=122	=122	=122	=122	=122	=122	=122	=122
!LO:TX:b:i:t=dim.	!	!LO:TX:b:i:t=dim.	!	!LO:TX:b:i:t=dim.	!	!LO:TX:b:i:t=dim.	!	!
(8D-L	p	(48A-LLL	p	(8ff-L	p	(8fff-L	p	iv
.	.	48d-	.	.	.	.	.	.
.	.	48A-	.	.	.	.	.	.
.	.	48d-	.	.	.	.	.	.
.	.	48A-	.	.	.	.	.	.
.	.	48d-JJJ)	.	.	.	.	.	.
8E-J	.	(48G-LLL	.	8ee-J)	.	8eee-	.	#viio6/iv
.	.	48c	.	.	.	.	.	.
.	.	48G-	.	.	.	.	.	.
.	.	48c	.	.	.	.	.	.
.	.	48G-	.	.	.	.	.	.
.	.	48cJJJ)	.	.	.	.	.	.
8.F-L	.	8.A-L	.	48r	.	8.ddd-	.	iv6
.	.	.	.	(48dd-LLL	.	.	.	.
.	.	.	.	48a-	.	.	.	.
.	.	.	.	48dd-	.	.	.	.
.	.	.	.	48a-	.	.	.	.
.	.	.	.	48dd-JJJ	.	.	.	.
.	.	.	.	48a-LLL	.	.	.	.
.	.	.	.	48dd-	.	.	.	.
.	.	.	.	48a-	.	.	.	.
16FJk)	.	16A-Jk	.	48dd-	.	16ccc-Jk)	.	V65/VII
.	.	.	.	48a-	.	.	.	.
.	.	.	.	48dd-JJJ)	.	.	.	.
=123	=123	=123	=123	=123	=123	=123	=123	=123
(8G-L	.	(8B-L	.	48r	.	(8bb-L	.	VII
.	.	.	.	(48dd-LLL	.	.	.	.
.	.	.	.	48g-	.	.	.	.
.	.	.	.	48dd-	.	.	.	.
.	.	.	.	48g-	.	.	.	.
.	.	.	.	48dd-JJJ)	.	.	.	.
8A-J	.	8c-X	.	48r	.	8aa-	.	V43/VII
.	.	.	.	(48dd-LLL	.	.	.	.
.	.	.	.	48f	.	.	.	.
.	.	.	.	48dd-	.	.	.	.
.	.	.	.	48f	.	.	.	.
.	.	.	.	48dd-JJJ)	.	.	.	.
8.B-L)	.	8.d-)	.	48r	.	8.gg-	.	VII6
.	.	.	.	(48dd-LLL	.	.	.	.
.	.	.	.	48g-	.	.	.	.
.	.	.	.	48dd-	.	.	.	.
.	.	.	.	48g-	.	.	.	.
.	.	.	.	48dd-JJJ	.	.	.	.
.	.	.	.	48g-LLL	.	.	.	.
.	.	.	.	48dd-	.	.	.	.
.	.	.	.	48g-	.	.	.	.
16B-Jk	.	16d-Jk	.	48dd-	.	16ff-Jk)	.	#viio65
.	.	.	.	48g	.	.	.	.
.	.	.	.	48dd-JJJ)	.	.	.	.
=124	=124	=124	=124	=124	=124	=124	=124	=124
(8c-L	pp	8e-L	pp	48r	.	(4ee-	pp	#viio7/iv
.	.	.	.	(48cc-LLL	pp	.	.	.
.	.	.	.	48a-	.	.	.	.
.	.	.	.	48cc-	.	.	.	.
.	.	.	.	48a-	.	.	.	.
.	.	.	.	48cc-JJJ)	.	.	.	.
8cJ	.	(8e-J	.	48r	.	.	.	.
.	.	.	.	(48b--XLLL	.	.	.	.
.	.	.	.	48g-	.	.	.	.
.	.	.	.	48b--	.	.	.	.
.	.	.	.	48g-	.	.	.	.
.	.	.	.	48b--JJJ)	.	.	.	.
8d-L	.	8f-L	.	48r	.	8dd-L	.	.bII6
.	.	.	.	(48b--LLL	.	.	.	.
.	.	.	.	48f-	.	.	.	.
.	.	.	.	48b--	.	.	.	.
.	.	.	.	48f-	.	.	.	.
.	.	.	.	48b--JJJ)	.	.	.	.
8dJ)	.	8fJ)	.	48r	.	8cc-J)	.	#viio7/V
.	.	.	.	(48a-LLL	.	.	.	.
.	.	.	.	48f	.	.	.	.
.	.	.	.	48a-	.	.	.	.
.	.	.	.	48f	.	.	.	.
.	.	.	.	48a-JJJ)	.	.	.	.
=125	=125	=125	=125	=125	=125	=125	=125	=125
!LO:TX:b:i:t=cresc.	!	!LO:TX:b:i:t=cresc.	!	!LO:TX:b:i:t=cresc.	!	!LO:TX:b:i:t=cresc.	!	!
8e-L	.	8gL	.	(8gL	.	(8b-L	.	V
(16.e-L	.	(16.gL	.	16.b-L)	.	16.ee-L	.	.
32f-JJk)	.	32a-JJk)	.	32b-JJk	.	32ddJJk)	.	.
(8f-L	.	8a-L	.	8b-L	.	(8ddL	.	ii%43
!	!	!	!	!	!LO:DY:a	!	!	!
8fJ)	sf > ]]	8a-J	sf > ]]	(8b-J 8dd	sf sf > ]]	8bb-J)	>]	V43/V
=126	=126	=126	=126	=126	=126	=126	=126	=126
8e-L	.	(8gL	.	(8b-L) 8ee-	.	(16bb-LL	.	V
.	.	.	.	.	.	112aaXLL	.	.
.	.	.	.	.	.	112bb-	.	.
.	.	.	.	.	.	112ccc	.	.
.	.	.	.	.	.	112bb-	.	.
.	.	.	.	.	.	112aa-	.	.
.	.	.	.	.	.	112gg	.	.
.	.	.	.	.	.	112ffJJJJ	.	.
!LO:TX:a:i:t=cresc.	!	!LO:TX:b:i:t=cresc.	!	!LO:TX:b:i:t=cresc.	!	!	!	!
(16.e-L	.	16.b-L)	.	16.gL	.	16.ee-LL	.	.
32f-JJk)	.	32b-JJk	.	32a-JJk)	.	32ddJJk)	.	.
!	!	!	!	!	!LO:DY:a	!	!	!
(8f-L	sf	(8b-L	sf	(8a-L	sf sf	(8ddL	.	ii%43
8fJ)	>]	[8a-J)	>]	[8b-J) [8dd	>]	[8bb-J)	>]	V43/V
=127	=127	=127	=127	=127	=127	=127	=127	=127
!	!	!	!	!	!	!LO:TX:b:i:t=cresc.	!	!
2f	p	2a-]	p	2b-] 2dd]	p	8bb-L_	p	.
.	.	.	.	.	.	(64bb-LLL]	.	.
.	.	.	.	.	.	64ccc	.	.
.	.	.	.	.	.	64bb-	.	.
.	.	.	.	.	.	64aa-	.	.
.	.	.	.	.	.	64bb-	.	.
.	.	.	.	.	.	64ccc	.	.
.	.	.	.	.	.	64ddd	.	.
.	.	.	.	.	.	64eee-JJJJ	.	.
.	.	.	.	.	.	64dddLLLL	.	.
.	.	.	.	.	.	64eee-	.	.
.	.	.	.	.	.	64ddd	.	.
.	.	.	.	.	.	64ccc	.	.
.	.	.	.	.	.	64ddd	.	.
.	.	.	.	.	.	64eee-	.	.
.	.	.	.	.	.	64fff	.	.
.	.	.	.	.	.	64gggJJJJ	.	.
.	.	.	.	.	.	64fffLLLL	.	.
.	.	.	.	.	.	64ggg	.	.
.	.	.	.	.	.	64fff	.	.
.	.	.	.	.	.	64eeeX	.	.
.	.	.	.	.	.	64fff	.	.
.	.	.	.	.	.	64ggg	.	.
.	.	.	.	.	.	64aaa-	.	.
.	.	.	.	.	.	64bbb-JJJJ	.	.
=128	=128	=128	=128	=128	=128	=128	=128	=128
2B-	.	4dd	.	4a- 4ff	.	64aaa-LLLL	.	V7/V
.	.	.	.	.	.	64bbb-	.	.
.	.	.	.	.	.	64aaa-	.	.
.	.	.	.	.	.	64ggg	.	.
.	.	.	.	.	.	64aaa-	.	.
.	.	.	.	.	.	64bbb-	.	.
.	.	.	.	.	.	64cccc	.	.
.	.	.	.	.	.	64bbb-JJJJ	.	.
.	.	.	.	.	.	64aaa-LLLL	.	.
.	.	.	.	.	.	64bbb-	.	.
.	.	.	.	.	.	64aaa-	.	.
.	.	.	.	.	.	64ggg	.	.
.	.	.	.	.	.	64fff	.	.
.	.	.	.	.	.	64ggg	.	.
.	.	.	.	.	.	64fff	.	.
.	.	.	.	.	.	64eee-JJJJ	.	.
.	.	[4d [4f	.	[4a-	.	64dddLLLL	.	.
.	.	.	.	.	.	64eee-	.	.
.	.	.	.	.	.	64ddd	.	.
.	.	.	.	.	.	64ccc	.	.
.	.	.	.	.	.	64bb-	.	.
.	.	.	.	.	.	64ccc	.	.
.	.	.	.	.	.	64bb-	.	.
.	.	.	.	.	.	64aa-JJJJ	.	.
.	.	.	.	.	.	64ggLLLL	.	.
.	.	.	.	.	.	64aa-	.	.
.	.	.	.	.	.	64gg	.	.
.	.	.	.	.	.	64ff	.	.
.	.	.	.	.	.	64ee-	.	.
.	.	.	.	.	.	64ff	.	.
.	.	.	.	.	.	64ee-	.	.
.	.	.	.	.	.	64ddJJJJ	.	.
=129	=129	=129	=129	=129	=129	=129	=129	=129
2BB-	.	2d] 2f]	.	2B- 2a-]	.	64ccLLLL	.	.
.	.	.	.	.	.	64dd	.	.
.	.	.	.	.	.	64cc	.	.
.	.	.	.	.	.	64b-	.	.
.	.	.	.	.	.	64a-	.	.
.	.	.	.	.	.	64b-	.	.
.	.	.	.	.	.	64a-	.	.
.	.	.	.	.	.	64gJJJJ	.	.
.	.	.	.	.	.	64fLLLL	.	.
.	.	.	.	.	.	64g	.	.
.	.	.	.	.	.	64f	.	.
.	.	.	.	.	.	64e-	.	.
.	.	.	.	.	.	64d	.	.
.	.	.	.	.	.	64e-	.	.
.	.	.	.	.	.	64d	.	.
.	.	.	.	.	.	64cJJJJ	.	.
.	.	.	.	.	.	64B-LLLL	.	.
.	.	.	.	.	.	64d	.	.
.	.	.	.	.	.	64c	.	.
.	.	.	.	.	.	64e-	.	.
.	.	.	.	.	.	64d	.	.
.	.	.	.	.	.	64f	.	.
.	.	.	.	.	.	64e-	.	.
.	.	.	.	.	.	64gJJJJ	.	.
.	.	.	.	.	.	64fLLLL	.	.
.	.	.	.	.	.	64a-	.	.
.	.	.	.	.	.	64g	.	.
.	.	.	.	.	.	64b-	.	.
.	.	.	.	.	.	64a-	.	.
.	.	.	.	.	.	64cc	.	.
.	.	.	.	.	.	64b-	.	.
.	.	.	.	.	.	64dJJJJ)	.	.
=130	=130	=130	=130	=130	=130	=130	=130	=130
8E-	.	8e-	.	8B- 8g	.	64e-'LLLL	.	V
.	.	.	.	.	.	64e-'	.	.
.	.	.	.	.	.	64f'	.	.
.	.	.	.	.	.	64g'	.	.
.	.	.	.	.	.	64a-'	.	.
.	.	.	.	.	.	64b-'	.	.
.	.	.	.	.	.	64cc'	.	.
.	.	.	.	.	.	64dd'JJJJ	.	.
8r	.	8r	.	64r	.	64ee-'LLLL	.	.
.	.	.	.	64ee-'LLLL	.	64g'	.	.
.	.	.	.	64dd'	.	64a-'	.	.
.	.	.	.	64cc'	.	64b-'	.	.
.	.	.	.	64b-'	.	64cc'	.	.
.	.	.	.	64a-'	.	64dd'	.	.
.	.	.	.	64g'	.	64ee-'	.	.
.	.	.	.	64f'JJJJ	.	64ff'JJJJ	.	.
4r	.	8r	.	16e-	.	64ggLLLL	.	.
.	.	.	.	.	.	64ee-	.	.
.	.	.	.	.	.	64ff	.	.
.	.	.	.	.	.	64gg	.	.
.	.	.	.	16r	.	64aa-	.	.
.	.	.	.	.	.	64bb-	.	.
.	.	.	.	.	.	64ccc	.	.
.	.	.	.	.	.	64dddJJJJ	.	.
.	.	64r	.	8r	.	64eee-LLLL	.	.
.	.	64e-'LLLL	.	.	.	64gg	.	.
.	.	64d'	.	.	.	64aa-	.	.
.	.	64c'	.	.	.	64bb-	.	.
.	.	64B-'	.	.	.	64ccc	.	.
.	.	64A-'	.	.	.	64ddd	.	.
.	.	64G'	.	.	.	64eee-	.	.
.	.	64F'JJJJ	.	.	.	64fffJJJJ	.	.
=131	=131	=131	=131	=131	=131	=131	=131	=131
8r	.	16E-	.	2r	.	64gggLLLL	.	.
.	.	.	.	.	.	64bb-	.	.
.	.	.	.	.	.	64ccc	.	.
.	.	.	.	.	.	64ddd	.	.
.	.	8.r	.	.	.	64eee-	.	.
.	.	.	.	.	.	64fff	.	.
.	.	.	.	.	.	64ggg	.	.
.	.	.	.	.	.	64aaa-JJJJ	.	.
64r	.	.	.	.	.	64bbb-LLLL	.	.
64E-'LLLL	.	.	.	.	.	64eee-	.	.
64D'	.	.	.	.	.	64fff	.	.
64C'	.	.	.	.	.	64ggg	.	.
64BB-'	.	.	.	.	.	64aaa-	.	.
64AA-'	.	.	.	.	.	64bbb-	.	.
64GG'	.	.	.	.	.	64cccc	.	.
64FF'JJJJ	.	.	.	.	.	64ddddJJJJ	.	.
16EE-'	.	4r	.	.	.	(64eeee-LLLL	.	.
.	.	.	.	.	.	64bbb-	.	.
.	.	.	.	.	.	64cccc	.	.
.	.	.	.	.	.	64aaa-	.	.
16r	.	.	.	.	.	64bbb-	.	.
.	.	.	.	.	.	64ggg	.	.
.	.	.	.	.	.	64aaa-	.	.
.	.	.	.	.	.	64fffJJJJ)	.	.
8r	.	.	.	.	.	(64gggLLLL	.	.
.	.	.	.	.	.	64eee-	.	.
.	.	.	.	.	.	64fff	.	.
.	.	.	.	.	.	64ddd	.	.
.	.	.	.	.	.	64eee-	.	.
.	.	.	.	.	.	64bb-	.	.
.	.	.	.	.	.	64ccc	.	.
.	.	.	.	.	.	64aa-JJJJ	.	.
=132	=132	=132	=132	=132	=132	=132	=132	=132
2r	.	2r	.	2r	.	64bb-LLLL	.	.
.	.	.	.	.	.	64gg	.	.
.	.	.	.	.	.	64aa-	.	.
.	.	.	.	.	.	64ff	.	.
.	.	.	.	.	.	64gg	.	.
.	.	.	.	.	.	64ee-	.	.
.	.	.	.	.	.	64ff	.	.
.	.	.	.	.	.	64ddJJJJ	.	.
.	.	.	.	.	.	64ee-LLLL	.	.
.	.	.	.	.	.	64dd	.	.
.	.	.	.	.	.	64ff	.	.
.	.	.	.	.	.	64dd	.	.
.	.	.	.	.	.	64ee-	.	.
.	.	.	.	.	.	64dd	.	.
.	.	.	.	.	.	64ff	.	.
.	.	.	.	.	.	64ddJJJJ	.	.
.	.	.	.	.	.	64ee-LLLL	.	.
.	.	.	.	.	.	64dd	.	.
.	.	.	.	.	.	64ff	.	.
.	.	.	.	.	.	64dd	.	.
.	.	.	.	.	.	64ee-	.	.
.	.	.	.	.	.	64dd	.	.
.	.	.	.	.	.	64ff	.	.
.	.	.	.	.	.	64ddJJJJ	.	.
.	.	.	.	.	.	64ee-LLLL	.	.
.	.	.	.	.	.	64dd	.	.
.	.	.	.	.	.	64ff	.	.
.	.	.	.	.	.	64dd	.	.
.	.	.	.	.	.	64ee-	.	.
.	.	.	.	.	.	64dd	.	.
.	.	.	.	.	.	64ff	.	.
.	.	.	.	.	.	64ddJJJJ)	.	.
=133	=133	=133	=133	=133	=133	=133	=133	=133
!	!	!	!	!	!	!LO:TX:a:t=	!	!
8EE-	.	8G 8B-	.	8e-	.	2ee-	.	V\\
8r	.	8r	.	8r	.	.	.	.
4r	.	4r	.	4r	.	.	.	.
32ryy	.	32ryy	.	32ryy	.	32ryy	.	.
==	==	==	==	==	==	==	==	==
*-	*-	*-	*-	*-	*-	*-	*-	*-
!!!system-decoration: [(s1,s2,s3,s4)]
